; HEADER_BLOCK_START
; generated by OrcaSlicer 1.9.1 on 2025-02-24 at 12:41:28
; total layer number: 45
; filament_density: 1.24
; filament_diameter: 1.75
; max_z_height: 17.99
; HEADER_BLOCK_END

; THUMBNAIL_BLOCK_START

;
; THUMBNAIL_BLOCK_END

; external perimeters extrusion width = 0.80mm
; perimeters extrusion width = 0.80mm
; infill extrusion width = 0.80mm
; solid infill extrusion width = 0.80mm
; top infill extrusion width = 1.20mm
; first layer extrusion width = 0.80mm

; EXECUTABLE_BLOCK_START
M486 S0
M486 A3dpr.stl_id_0_copy_0
M486 S-1
M73 P0 R9
M201 X1000 Y1000 Z200 E5000
M203 X200 Y200 Z10 E60
M204 P1250 R1250 T1250
M205 X8.00 Y8.00 Z0.40 E5.00 ; sets the jerk limits, mm/sec
;TYPE:Custom
G21 ;metric values
G90 ;absolute positioning
M82 ;set extruder to absolute mode
M107 ;start with the fan off
G28 X0 Y0 ;move X/Y to min endstops
M300 S1318 P266
G28 Z0 ;move Z to min endstops
G0 Z0.2
 
M355 S1 ;oomlout light on
M140 S60 ;Start heating bed 
M104 S170 ; set extruder temp
M190 S60 ;Wait for bed to reach temp before proceeding
M109 S170 ; wait for extruder temp

G0 Z20 F200;oomlout lift
;temperature stuff before bed leveling


;G29 ;oomlout bed level commented for planning
 

;purge print head from bambu
M109 S215 ;set nozzle to common flush temp
G92 E0 ;zero the extruded length
G1 E50 F300

M355 S1 ;oomlout light on
M104 S215 ;Start heating extruder
M109 S215 ;Wait for extruder to reach temp before proceeding



g1 Z3 F200; move z up a bit (height from prusa)
G92 E0 ;zero the extruded length
G0 E50 F300 ;clean out a bit more from bambu



M355 S1 ;oomlout light on
;from prusa
; intro line
G92 E0 ;zero the extruded length
G1 X170 F4000
G1 Y10 F1000;move bed forward and down ready for wipe
G1 Z0.2 F720
M73 P1 R9
G1 X110 E8 F900
M73 P2 R9
G1 X40 E10 F700
M73 P3 R9
G1 X20 F4000 ; Quickly wipe away from the filament line
G92 E0


M355 S1 ;oomlout light on
M117 ; Printing…
G5
G90
G21
M83 ; use relative distances for extrusion
; filament start gcode
M106 S0
;LAYER_CHANGE
;Z:0.39
;HEIGHT:0.39
;BEFORE_LAYER_CHANGE
;0.39
G92 E0
M73 P5 R9
G1 E-.8 F1800
;AFTER_LAYER_CHANGE
;0.39
;_SET_FAN_SPEED_CHANGING_LAYER
M204 S1000
G1 X92.899 Y109.481 F7200
G1 Z.39 F6000
G1 E.8 F2400
;TYPE:Skirt
;WIDTH:0.8
M73 P6 R9
G1 F2577.328
M73 P7 R9
G1 X94.567 Y108.269 E.2346
G1 X95.766 Y107.661 E.15307
G1 X97.034 Y107.208 E.15322
G1 X98.347 Y106.917 E.15303
G1 X99.686 Y106.794 E.15311
G1 X150.321 Y106.794 E5.7633
G1 X152.358 Y107.052 E.23371
G1 X154.234 Y107.661 E.22448
G1 X156.039 Y108.653 E.23443
G1 X157.101 Y109.481 E.15324
G1 X158.449 Y110.917 E.22425
M73 P7 R8
G1 X159.554 Y112.657 E.23458
M73 P8 R8
G1 X160.086 Y113.893 E.15317
G1 X160.576 Y115.802 E.22426
G1 X160.716 Y117.5 E.19397
G1 X160.716 Y137.5 E2.27642
G1 X160.576 Y139.198 E.19397
G1 X160.28 Y140.509 E.15299
G1 X159.821 Y141.775 E.15317
G1 X158.872 Y143.502 E.22433
G1 X158.049 Y144.567 E.15317
G1 X157.101 Y145.519 E.15299
G1 X155.433 Y146.731 E.2346
G1 X154.234 Y147.339 E.15307
G1 X152.966 Y147.792 E.15322
G1 X151.653 Y148.083 E.15303
G1 X150.314 Y148.206 E.1531
G1 X99.686 Y148.206 E5.76253
G1 X98.347 Y148.083 E.15311
G1 X97.034 Y147.792 E.15303
G1 X95.766 Y147.339 E.15322
G1 X94.567 Y146.731 E.15306
G1 X93.453 Y145.978 E.153
G1 X92.442 Y145.089 E.15324
G1 X91.551 Y144.083 E.15298
G1 X90.792 Y142.972 E.15316
G1 X90.179 Y141.775 E.15308
G1 X89.72 Y140.509 E.15317
G1 X89.424 Y139.198 E.15299
G1 X89.295 Y137.859 E.15319
G1 X89.334 Y116.515 E2.42941
G1 X89.542 Y115.185 E.15318
G1 X89.914 Y113.893 E.153
G1 X90.446 Y112.657 E.15317
G1 X91.128 Y111.498 E.15306
G1 X91.951 Y110.433 E.15317
G1 X92.815 Y109.566 E.13933
; printing object 3dpr.stl id:0 copy 0
G1 E-.1016 F1800
;WIPE_START
G1 F2577.328
G1 X93.619 Y108.971 E-.6984
;WIPE_END
M486 S0
G1 X151.36 Y113.317 F6000
G1 E.8 F2400
;TYPE:Outer wall
;WIDTH:0.8
G1 F2577.329
G1 X151.873 Y113.52 E.06278
G1 X152.357 Y113.786 E.06288
G1 X152.804 Y114.111 E.06287
G1 X153.207 Y114.489 E.06288
G1 X153.559 Y114.914 E.06288
G1 X153.855 Y115.381 E.06286
G1 X154.09 Y115.881 E.06288
G1 X154.261 Y116.406 E.06288
G1 X154.364 Y116.949 E.06287
G1 X154.4 Y117.662 E.08127
G1 X154.4 Y137.481 E2.25587
G1 X154.364 Y138.051 E.06503
G1 X154.261 Y138.594 E.06287
G1 X154.09 Y139.119 E.06288
G1 X153.855 Y139.619 E.06288
G1 X153.559 Y140.086 E.06286
G1 X153.207 Y140.511 E.06288
G1 X152.804 Y140.889 E.06288
G1 X152.357 Y141.214 E.06287
G1 X151.873 Y141.48 E.06288
G1 X151.359 Y141.684 E.06287
G1 X150.824 Y141.821 E.06288
G1 X150.276 Y141.89 E.06287
G1 X99.724 Y141.89 E5.75394
G1 X99.176 Y141.821 E.06287
G1 X98.641 Y141.684 E.06288
G1 X98.127 Y141.48 E.06287
G1 X97.643 Y141.214 E.06288
G1 X97.196 Y140.889 E.06287
G1 X96.793 Y140.511 E.06288
M73 P9 R8
G1 X96.441 Y140.086 E.06288
G1 X96.145 Y139.619 E.06286
G1 X95.91 Y139.119 E.06288
G1 X95.739 Y138.594 E.06288
G1 X95.636 Y138.051 E.06287
G1 X95.6 Y137.481 E.06503
G1 X95.6 Y117.519 E2.27213
G1 X95.636 Y116.949 E.06503
G1 X95.739 Y116.406 E.06287
G1 X95.91 Y115.881 E.06288
G1 X96.145 Y115.381 E.06288
G1 X96.441 Y114.914 E.06286
G1 X96.793 Y114.489 E.06288
G1 X97.196 Y114.111 E.06288
G1 X97.643 Y113.786 E.06287
G1 X98.127 Y113.52 E.06288
G1 X98.641 Y113.316 E.06287
G1 X99.176 Y113.179 E.06288
G1 X99.724 Y113.11 E.06287
G1 X150.283 Y113.111 E5.75471
G1 X150.824 Y113.179 E.0621
G1 X151.337 Y113.311 E.06024
G1 E-.8 F1800
G1 X141.778 Y129.109 F6000
G1 E.8 F2400
G1 F2577.329
G1 X141.323 Y129.5 E.06841
G1 X140.784 Y129.766 E.06843
G1 X140.195 Y129.89 E.06842
G1 X139.595 Y129.864 E.06842
G1 X139.02 Y129.689 E.06842
G1 X138.506 Y129.376 E.06843
G1 X138.087 Y128.946 E.06841
G1 X137.787 Y128.424 E.06842
G1 X137.627 Y127.845 E.06843
G1 X137.617 Y127.216 E.07156
G1 X137.754 Y126.659 E.06533
G1 X138.034 Y126.127 E.06843
G1 X138.437 Y125.681 E.0684
G1 X138.939 Y125.35 E.06843
G1 X139.507 Y125.153 E.06841
G1 X140.106 Y125.104 E.06842
G1 X140.698 Y125.206 E.06842
G1 X141.247 Y125.452 E.06842
G1 X141.717 Y125.826 E.06842
G1 X142.079 Y126.306 E.06841
G1 X142.311 Y126.86 E.06843
G1 X142.398 Y127.455 E.06842
G1 X142.334 Y128.053 E.06841
G1 X142.123 Y128.616 E.06843
G1 X141.792 Y129.089 E.0657
G1 E-.8 F1800
G1 X142.16 Y129.393 F6000
G1 X142.097 Y129.469
G1 X141.834 Y129.716
G1 X141.541 Y129.929
G1 X141.225 Y130.103
G1 X140.889 Y130.236
G1 X140.539 Y130.326
G1 X140.181 Y130.371
G1 X109.819 Y130.371
G1 X109.461 Y130.326
G1 X109.111 Y130.236
G1 X108.845 Y130.13
G1 X109.02 Y129.689
G1 E.8 F2400
G1 F2577.329
G1 X108.506 Y129.376 E.06843
G1 X108.087 Y128.946 E.06841
G1 X107.787 Y128.424 E.06842
G1 X107.621 Y127.818 E.07159
G1 X107.616 Y127.244 E.06531
G1 X107.754 Y126.659 E.06842
G1 X108.034 Y126.127 E.06843
G1 X108.437 Y125.681 E.0684
G1 X108.939 Y125.35 E.06843
G1 X109.507 Y125.153 E.06841
G1 X110.106 Y125.104 E.06842
G1 X110.698 Y125.206 E.06842
G1 X111.247 Y125.452 E.06842
G1 X111.717 Y125.826 E.06842
G1 X112.079 Y126.306 E.06841
G1 X112.311 Y126.86 E.06843
G1 X112.391 Y127.403 E.0624
G1 X112.334 Y128.053 E.07429
G1 X112.123 Y128.616 E.06843
G1 X111.778 Y129.109 E.06843
G1 X111.323 Y129.5 E.06841
G1 X110.784 Y129.766 E.06843
G1 X110.195 Y129.89 E.06842
G1 X109.595 Y129.864 E.06842
G1 X109.043 Y129.696 E.06568
G1 E-.8 F1800
G1 X108.867 Y130.139 F6000
G1 X109.111 Y130.236
G1 X109.461 Y130.326
G1 X109.819 Y130.371
G1 X110.181 Y130.371
G1 X110.539 Y130.326
G1 X110.889 Y130.236
G1 X111.225 Y130.103
G1 X111.541 Y129.929
G1 X111.834 Y129.716
G1 X112.097 Y129.469
G1 X112.327 Y129.191
G1 X112.521 Y128.886
G1 X112.662 Y128.586
G1 X153.642 Y116.042
G1 X153.779 Y115.978
G1 E.8 F2400
;TYPE:Bottom surface
;WIDTH:0.805154
G1 F2558.918
G1 X152.392 Y114.608 E.22344
G1 X152.011 Y114.331 E.05402
G1 X151.598 Y114.104 E.05404
G1 X151.16 Y113.931 E.05402
G1 X150.703 Y113.814 E.05403
G1 X150.579 Y113.798 E.01431
G1 X153.703 Y116.921 E.50635
G1 X153.755 Y117.539 E.07109
G1 X153.755 Y117.994 E.05218
G1 X149.517 Y113.755 E.68722
G1 X148.496 Y113.755 E.11697
G1 X153.755 Y119.015 E.85264
G1 X153.755 Y120.035 E.11697
G1 X147.476 Y113.755 E1.01806
G1 X146.456 Y113.755 E.11697
M73 P10 R8
G1 X153.755 Y121.055 E1.18348
G1 X153.755 Y122.075 E.11697
G1 X145.435 Y113.755 E1.34889
G1 X144.415 Y113.755 E.11697
G1 X153.755 Y123.096 E1.51431
G1 X153.755 Y124.116 E.11697
G1 X143.395 Y113.755 E1.67973
G1 X142.374 Y113.755 E.11697
G1 X153.755 Y125.136 E1.84515
G1 X153.755 Y126.157 E.11697
G1 X141.354 Y113.755 E2.01057
G1 X140.334 Y113.755 E.11697
G1 X153.755 Y127.177 E2.17599
G1 X153.755 Y128.197 E.11697
G1 X139.313 Y113.755 E2.34141
G1 X138.293 Y113.755 E.11697
G1 X153.755 Y129.217 E2.50683
G1 X153.755 Y130.238 E.11697
G1 X137.273 Y113.755 E2.67225
G1 X136.252 Y113.755 E.11697
G1 X153.755 Y131.258 E2.83767
G1 X153.755 Y132.278 E.11697
G1 X135.232 Y113.755 E3.00308
G1 X134.212 Y113.755 E.11697
G1 X153.755 Y133.299 E3.1685
G1 X153.755 Y134.319 E.11697
G1 X133.191 Y113.755 E3.33392
M73 P11 R8
G1 X132.171 Y113.755 E.11697
G1 X153.755 Y135.339 E3.49934
G1 X153.755 Y136.36 E.11697
G1 X131.151 Y113.755 E3.66476
G1 X130.131 Y113.755 E.11697
G1 X153.755 Y137.38 E3.83018
G1 X153.723 Y137.97 E.06779
G1 X153.66 Y138.304 E.03898
G1 X143.026 Y127.671 E1.72399
G1 X142.952 Y128.257 E.06777
G1 X142.852 Y128.517 E.0319
G1 X153.402 Y139.067 E1.71047
G1 X153.289 Y139.308 E.03052
G1 X153.036 Y139.706 E.05402
G1 X142.51 Y129.195 E1.70533
G1 X142.2 Y129.608 E.05915
G1 X142.036 Y129.742 E.02426
G1 X152.544 Y140.249 E1.7035
G1 X152.392 Y140.392 E.02383
G1 X151.967 Y140.693 E.05975
G1 X141.44 Y130.166 E1.70672
M73 P12 R8
G1 X141.043 Y130.357 E.05048
G1 X140.834 Y130.425 E.0252
G1 X140.701 Y130.448 E.01544
G1 X151.277 Y141.023 E1.71453
G1 X151.16 Y141.069 E.01441
G1 X150.703 Y141.186 E.05403
G1 X150.452 Y141.218 E.02908
G1 X139.37 Y130.137 E1.79658
G1 E-.8 F1800
G1 X139.33 Y130.292 F6000
G1 X139.111 Y130.236
G1 X138.775 Y130.103
G1 X138.459 Y129.929
G1 X138.166 Y129.716
G1 X137.903 Y129.469
G1 X137.673 Y129.191
G1 X137.479 Y128.886
G1 X137.325 Y128.559
G1 X137.214 Y128.215
G1 X137.146 Y127.86
G1 X137.123 Y127.5
G1 X137.146 Y127.14
G1 X137.214 Y126.785
G1 X137.325 Y126.441
G1 X137.479 Y126.114
G1 X137.673 Y125.809
G1 X137.903 Y125.531
G1 X138.166 Y125.284
G1 X138.459 Y125.071
G1 X138.775 Y124.897
G1 X139.111 Y124.764
G1 X139.461 Y124.674
G1 X139.819 Y124.629
G1 X140.142 Y124.629
G1 X140.142 Y124.786
G1 E.8 F2400
G1 F2558.918
G1 X129.11 Y113.755 E1.78845
G1 X128.09 Y113.755 E.11697
G1 X138.982 Y124.647 E1.76593
G1 X138.805 Y124.703 E.02135
G1 X138.608 Y124.796 E.02487
G1 X138.304 Y124.989 E.04138
G1 X127.07 Y113.755 E1.82132
G1 X126.049 Y113.755 E.11697
G1 X137.761 Y125.467 E1.89877
G1 X137.515 Y125.738 E.04197
G1 X137.337 Y126.063 E.04249
G1 X125.029 Y113.755 E1.99537
G1 X124.009 Y113.755 E.11697
G1 X137.059 Y126.806 E2.11585
G1 X136.976 Y127.128 E.03816
G1 X136.971 Y127.738 E.06992
G1 X122.988 Y113.755 E2.26696
G1 X121.968 Y113.755 E.11697
G1 X149.459 Y141.245 E4.45691
G1 X148.438 Y141.245 E.11697
G1 X120.948 Y113.755 E4.45691
G1 X119.927 Y113.755 E.11697
G1 X147.418 Y141.245 E4.45691
G1 X146.398 Y141.245 E.11697
G1 X118.907 Y113.755 E4.45692
M73 P13 R8
G1 X117.887 Y113.755 E.11697
G1 X145.377 Y141.245 E4.45692
G1 X144.357 Y141.245 E.11697
G1 X116.866 Y113.755 E4.45692
G1 X115.846 Y113.755 E.11697
G1 X143.337 Y141.245 E4.45692
G1 X142.316 Y141.245 E.11697
G1 X114.826 Y113.755 E4.45693
G1 X113.806 Y113.755 E.11697
G1 X141.296 Y141.245 E4.45693
G1 X140.276 Y141.245 E.11697
G1 X112.785 Y113.755 E4.45693
M73 P14 R8
G1 X111.765 Y113.755 E.11697
G1 X139.256 Y141.245 E4.45693
G1 X138.235 Y141.245 E.11697
G1 X110.745 Y113.755 E4.45694
G1 X109.724 Y113.755 E.11697
G1 X137.215 Y141.245 E4.45694
G1 X136.195 Y141.245 E.11697
G1 X108.704 Y113.755 E4.45694
G1 X107.684 Y113.755 E.11697
G1 X135.174 Y141.245 E4.45695
G1 X134.154 Y141.245 E.11697
G1 X106.663 Y113.755 E4.45695
M73 P15 R8
G1 X105.643 Y113.755 E.11697
G1 X133.134 Y141.245 E4.45695
G1 X132.113 Y141.245 E.11697
G1 X104.623 Y113.755 E4.45695
G1 X103.602 Y113.755 E.11697
G1 X131.093 Y141.245 E4.45696
G1 X130.073 Y141.245 E.11697
G1 X102.582 Y113.755 E4.45696
G1 X101.562 Y113.755 E.11697
G1 X129.053 Y141.245 E4.45696
G1 X128.032 Y141.245 E.11697
G1 X100.541 Y113.755 E4.45697
M73 P16 R8
G1 X99.764 Y113.755 E.08909
G1 X99.548 Y113.782 E.02495
G1 X110.236 Y124.469 E1.73271
G1 X110.082 Y124.46 E.01769
G1 X109.428 Y124.507 E.0751
G1 X109.295 Y124.549 E.01602
G1 X98.723 Y113.977 E1.71396
G1 X98.402 Y114.104 E.0396
G1 X98.033 Y114.307 E.04828
G1 X108.555 Y124.829 E1.70591
G1 X108.146 Y125.089 E.05563
G1 X107.957 Y125.251 E.02851
G1 X97.456 Y114.751 E1.70239
G1 X97.264 Y114.931 E.0302
G1 X96.971 Y115.286 E.05276
G1 X107.485 Y125.8 E1.70458
G1 X107.167 Y126.377 E.07557
G1 X107.141 Y126.476 E.01176
G1 X96.598 Y115.933 E1.70937
G1 X96.511 Y116.118 E.02351
G1 X96.365 Y116.567 E.05404
G1 X96.34 Y116.696 E.01504
G1 X107.294 Y127.65 E1.7759
G1 E-.8 F1800
G1 X107.133 Y127.66 F6000
M73 P17 R8
G1 X107.123 Y127.5
G1 X107.146 Y127.14
G1 X107.214 Y126.785
G1 X107.325 Y126.441
G1 X107.479 Y126.114
G1 X107.673 Y125.809
G1 X107.903 Y125.531
G1 X108.166 Y125.284
G1 X108.459 Y125.071
G1 X108.775 Y124.897
G1 X109.111 Y124.764
G1 X109.461 Y124.674
G1 X109.819 Y124.629
G1 X110.181 Y124.629
G1 X110.539 Y124.674
G1 X110.889 Y124.764
G1 X111.225 Y124.897
G1 X111.541 Y125.071
G1 X111.834 Y125.284
G1 X112.097 Y125.531
G1 X112.327 Y125.809
G1 X112.521 Y126.114
G1 X112.675 Y126.441
G1 X112.786 Y126.785
G1 X112.799 Y126.85
G1 X112.646 Y126.879
G1 E.8 F2400
G1 F2558.918
G1 X127.012 Y141.245 E2.32909
G1 X125.992 Y141.245 E.11697
G1 X112.956 Y128.21 E2.11343
G1 X112.917 Y128.362 E.01808
G1 X112.674 Y128.948 E.0727
G1 X124.971 Y141.245 E1.99366
G1 X123.951 Y141.245 E.11697
G1 X112.251 Y129.546 E1.89684
G1 X111.702 Y130.016 E.08295
G1 X122.931 Y141.245 E1.82052
G1 X121.91 Y141.245 E.11697
G1 X111.027 Y130.362 E1.76446
G1 X110.834 Y130.425 E.02329
G1 X110.181 Y130.536 E.07594
G1 X120.89 Y141.245 E1.73623
G1 X119.87 Y141.245 E.11697
G1 X96.245 Y117.62 E3.83025
G1 X96.245 Y118.641 E.11697
G1 X118.85 Y141.245 E3.66483
G1 X117.829 Y141.245 E.11697
G1 X96.245 Y119.661 E3.49942
G1 X96.245 Y120.681 E.11697
G1 X116.809 Y141.245 E3.334
G1 X115.789 Y141.245 E.11697
G1 X96.245 Y121.701 E3.16859
M73 P18 R8
G1 X96.245 Y122.722 E.11697
G1 X114.768 Y141.245 E3.00317
M73 P18 R7
G1 X113.748 Y141.245 E.11697
G1 X96.245 Y123.742 E2.83775
G1 X96.245 Y124.762 E.11697
G1 X112.728 Y141.245 E2.67234
G1 X111.708 Y141.245 E.11697
G1 X96.245 Y125.783 E2.50692
G1 X96.245 Y126.803 E.11697
G1 X110.687 Y141.245 E2.3415
G1 X109.667 Y141.245 E.11697
G1 X96.245 Y127.823 E2.17609
G1 X96.245 Y128.843 E.11697
G1 X108.647 Y141.245 E2.01067
G1 X107.626 Y141.245 E.11697
G1 X96.245 Y129.864 E1.84526
G1 X96.245 Y130.884 E.11697
G1 X106.606 Y141.245 E1.67984
M73 P19 R7
G1 X105.586 Y141.245 E.11697
G1 X96.245 Y131.904 E1.51442
G1 X96.245 Y132.925 E.11697
G1 X104.565 Y141.245 E1.34901
G1 X103.545 Y141.245 E.11697
G1 X96.245 Y133.945 E1.18359
G1 X96.245 Y134.965 E.11697
G1 X102.525 Y141.245 E1.01818
G1 X101.505 Y141.245 E.11697
G1 X96.245 Y135.986 E.85276
G1 X96.245 Y137.006 E.11697
G1 X100.484 Y141.245 E.68734
G1 X99.764 Y141.245 E.08253
G1 X99.421 Y141.202 E.03973
G1 X96.297 Y138.079 E.50633
G1 X96.365 Y138.433 E.04135
G1 X96.511 Y138.882 E.05404
G1 X96.711 Y139.308 E.05403
G1 X96.964 Y139.706 E.05401
G1 X97.25 Y140.052 E.05155
G1 X98.466 Y141.268 E.19704
; stop printing object 3dpr.stl id:0 copy 0
M106 S255
;LAYER_CHANGE
;Z:0.79
;HEIGHT:0.4
;BEFORE_LAYER_CHANGE
;0.79
G92 E0
G1 E-.09658 F1800
;WIPE_START
G1 F2558.918
G1 X97.759 Y140.56 E-.70342
;WIPE_END
M486 S-1
;AFTER_LAYER_CHANGE
;0.79
;_SET_FAN_SPEED_CHANGING_LAYER
M104 S210 ; set nozzle temperature
M140 S65 ; set bed temperature
; printing object 3dpr.stl id:0 copy 0
M486 S0
G1 X151.435 Y113.131 Z.79 F7200
G1 E.8 F2400
M204 S700
;TYPE:Outer wall
;WIDTH:0.8
G1 F2520.447
G1 X151.958 Y113.339 E.06556
G1 X152.464 Y113.617 E.06722
G1 X152.932 Y113.956 E.06722
G1 X153.353 Y114.352 E.06722
G1 X153.721 Y114.797 E.06723
G1 X154.03 Y115.284 E.06721
G1 X154.276 Y115.807 E.06723
G1 X154.455 Y116.356 E.06723
G1 X154.563 Y116.924 E.06721
G1 X154.6 Y117.662 E.08602
