; HEADER_BLOCK_START
; generated by OrcaSlicer 1.9.1 on 2025-02-24 at 12:42:02
; total layer number: 21
; filament_density: 1.24
; filament_diameter: 1.75
; max_z_height: 18.30
; HEADER_BLOCK_END

; THUMBNAIL_BLOCK_START

;
; THUMBNAIL_BLOCK_END

; external perimeters extrusion width = 1.20mm
; perimeters extrusion width = 1.20mm
; infill extrusion width = 1.20mm
; solid infill extrusion width = 1.20mm
; top infill extrusion width = 1.20mm
; first layer extrusion width = 1.20mm

; EXECUTABLE_BLOCK_START
M486 S0
M486 A3dpr.stl_id_0_copy_0
M486 S-1
M73 P0 R8
M201 X1000 Y1000 Z200 E5000
M203 X200 Y200 Z10 E60
M204 P1250 R1250 T1250
M205 X8.00 Y8.00 Z0.40 E5.00 ; sets the jerk limits, mm/sec
;TYPE:Custom
G21 ;metric values
G90 ;absolute positioning
M82 ;set extruder to absolute mode
M107 ;start with the fan off
G28 X0 Y0 ;move X/Y to min endstops
M300 S1318 P266
G28 Z0 ;move Z to min endstops
G0 Z0.2
 
M355 S1 ;oomlout light on
M140 S60 ;Start heating bed 
M104 S170 ; set extruder temp
M190 S60 ;Wait for bed to reach temp before proceeding
M109 S170 ; wait for extruder temp

G0 Z20 F200;oomlout lift
;temperature stuff before bed leveling


;G29 ;oomlout bed level commented for planning
 

;purge print head from bambu
M109 S215 ;set nozzle to common flush temp
G92 E0 ;zero the extruded length
G1 E50 F300

M355 S1 ;oomlout light on
M104 S215 ;Start heating extruder
M109 S215 ;Wait for extruder to reach temp before proceeding



g1 Z3 F200; move z up a bit (height from prusa)
G92 E0 ;zero the extruded length
G0 E50 F300 ;clean out a bit more from bambu



M355 S1 ;oomlout light on
;from prusa
; intro line
G92 E0 ;zero the extruded length
G1 X170 F4000
G1 Y10 F1000;move bed forward and down ready for wipe
G1 Z0.2 F720
M73 P1 R8
G1 X110 E8 F900
M73 P3 R8
G1 X40 E10 F700
M73 P4 R8
G1 X20 F4000 ; Quickly wipe away from the filament line
G92 E0


M355 S1 ;oomlout light on
M117 ; Printing…
G5
G90
G21
M83 ; use relative distances for extrusion
; filament start gcode
M106 S0
;LAYER_CHANGE
;Z:1.2
;HEIGHT:1.2
;BEFORE_LAYER_CHANGE
;1.2
G92 E0
M73 P6 R7
G1 Z1.2 F6000
;AFTER_LAYER_CHANGE
;1.2
;_SET_FAN_SPEED_CHANGING_LAYER
M204 S1000
G1 E-.8 F1800
G1 X92.745 Y109.316 F6000
G1 E.8 F2400
;TYPE:Skirt
;WIDTH:1.2
M73 P7 R7
G1 F636.62
M73 P8 R7
G1 X94.458 Y108.071 E.97592
G1 X95.683 Y107.451 E.63275
G1 X96.978 Y106.989 E.63339
G1 X98.318 Y106.693 E.63263
M73 P9 R7
G1 X99.686 Y106.567 E.63292
G1 X151.059 Y106.614 E23.67263
G1 X153.022 Y106.989 E.92111
G1 X154.317 Y107.451 E.63339
G1 X156.171 Y108.47 E.9752
G1 X157.713 Y109.746 E.92199
G1 X159.063 Y111.377 E.97551
G1 X160.026 Y113.129 E.92127
M73 P10 R7
G1 X160.68 Y115.143 E.9756
G1 X160.891 Y116.5 E.63325
G1 X160.942 Y137.5 E9.67663
G1 X160.798 Y139.241 E.8049
G1 X160.495 Y140.579 E.63244
G1 X160.026 Y141.871 E.63319
G1 X159.063 Y143.623 E.92127
G1 X158.223 Y144.711 E.63318
G1 X157.255 Y145.684 E.63241
M73 P11 R7
G1 X155.542 Y146.929 E.97592
G1 X154.317 Y147.549 E.63275
G1 X153.022 Y148.011 E.63339
G1 X151.682 Y148.307 E.63263
G1 X150.314 Y148.433 E.63292
G1 X99.686 Y148.433 E23.32938
G1 X98.318 Y148.307 E.63292
G1 X96.978 Y148.011 E.63263
G1 X95.683 Y147.549 E.63339
G1 X94.458 Y146.929 E.63275
G1 X93.321 Y146.161 E.63251
G1 X92.287 Y145.254 E.6335
M73 P12 R7
G1 X91.376 Y144.227 E.63242
G1 X90.601 Y143.093 E.63313
G1 X89.974 Y141.871 E.6328
G1 X89.505 Y140.579 E.63319
G1 X89.202 Y139.241 E.63245
G1 X89.069 Y137.873 E.63329
G1 X89.109 Y116.5 E9.84844
G1 X89.32 Y115.143 E.63324
G1 X89.699 Y113.823 E.63249
G1 X90.242 Y112.561 E.63322
G1 X90.937 Y111.377 E.63273
G1 X91.777 Y110.289 E.63318
G1 X92.66 Y109.401 E.57712
; printing object 3dpr.stl id:0 copy 0
;WIPE_START
M73 P13 R7
G1 X93.464 Y108.806 E-.8
;WIPE_END
M486 S0
G1 X97.273 Y114.313 F6000
G1 E.8 F2400
;TYPE:Outer wall
;WIDTH:1.2
G1 F636.62
G1 X97.324 Y114.265 E.03202
G1 X97.75 Y113.955 E.24293
G1 X98.212 Y113.701 E.24297
G1 X98.703 Y113.507 E.24292
G1 X99.213 Y113.376 E.24295
G1 X99.736 Y113.31 E.24294
G1 X150.272 Y113.311 E23.28678
G1 X150.787 Y113.376 E.2391
G1 X151.297 Y113.507 E.24295
G1 X151.788 Y113.701 E.24292
G1 X152.25 Y113.955 E.24298
G1 X152.676 Y114.265 E.24293
G1 X153.06 Y114.626 E.24295
M73 P14 R7
G1 X153.397 Y115.032 E.243
G1 X153.679 Y115.477 E.2429
G1 X153.904 Y115.954 E.24297
G1 X154.067 Y116.456 E.24298
G1 X154.165 Y116.974 E.24292
G1 X154.2 Y117.662 E.31741
G1 X154.2 Y137.475 E9.12988
G1 X154.165 Y138.026 E.25456
G1 X154.067 Y138.544 E.24291
G1 X153.904 Y139.046 E.24298
G1 X153.679 Y139.523 E.24297
G1 X153.397 Y139.968 E.2429
G1 X153.06 Y140.374 E.243
G1 X152.676 Y140.735 E.24295
G1 X152.25 Y141.045 E.24293
G1 X151.788 Y141.299 E.24297
G1 X151.297 Y141.493 E.24292
G1 X150.787 Y141.624 E.24295
G1 X150.264 Y141.69 E.24294
G1 X99.736 Y141.69 E23.28297
G1 X99.213 Y141.624 E.24294
G1 X98.703 Y141.493 E.24295
G1 X98.212 Y141.299 E.24292
G1 X97.75 Y141.045 E.24298
G1 X97.324 Y140.735 E.24293
G1 X96.94 Y140.374 E.24295
M73 P15 R7
G1 X96.603 Y139.968 E.243
G1 X96.321 Y139.523 E.2429
G1 X96.096 Y139.046 E.24297
G1 X95.933 Y138.544 E.24298
G1 X95.835 Y138.026 E.24292
G1 X95.8 Y137.475 E.25455
G1 X95.8 Y117.525 E9.19284
G1 X95.835 Y116.974 E.25456
G1 X95.933 Y116.456 E.24291
G1 X96.096 Y115.954 E.24298
G1 X96.321 Y115.477 E.24297
G1 X96.603 Y115.032 E.2429
G1 X96.94 Y114.626 E.243
M73 P16 R7
G1 X97.256 Y114.329 E.19987
G1 E-.8 F1800
G1 X137.564 Y126.599 F6000
G1 E.8 F2400
G1 F636.62
G1 X137.864 Y126.021 E.30009
G1 X138.299 Y125.537 E.29995
G1 X138.841 Y125.175 E.3001
G1 X139.455 Y124.96 E.30001
G1 X140.104 Y124.904 E.30004
G1 X140.746 Y125.012 E.30005
G1 X141.342 Y125.276 E.30005
G1 X141.853 Y125.679 E.30007
M73 P16 R6
G1 X142.247 Y126.197 E.29999
G1 X142.501 Y126.797 E.30009
G1 X142.597 Y127.441 E.30005
G1 X142.53 Y128.089 E.29999
G1 X142.304 Y128.699 E.30008
G1 X141.933 Y129.235 E.30007
G1 X141.441 Y129.661 E.29999
G1 X140.859 Y129.952 E.30008
G1 X140.222 Y130.088 E.30003
G1 X139.571 Y130.062 E.30004
G1 X138.948 Y129.875 E.30002
G1 X138.39 Y129.539 E.30007
G1 X137.934 Y129.074 E.30001
G1 X137.607 Y128.511 E.30004
G1 X137.431 Y127.884 E.30008
G1 X137.419 Y127.182 E.32376
G1 X137.558 Y126.622 E.26556
G1 E-.8 F1800
G1 X112.589 Y127.378 F6000
G1 E.8 F2400
G1 F636.62
G1 X112.589 Y127.623 E.11276
G1 X112.52 Y128.144 E.24234
G1 X112.304 Y128.699 E.27453
G1 X111.933 Y129.235 E.30008
G1 X111.441 Y129.661 E.29999
G1 X110.859 Y129.952 E.30008
G1 X110.222 Y130.088 E.30003
G1 X109.571 Y130.062 E.30004
G1 X108.948 Y129.875 E.30002
G1 X108.39 Y129.539 E.30007
G1 X107.934 Y129.074 E.3
G1 X107.607 Y128.511 E.30004
G1 X107.42 Y127.826 E.32715
G1 X107.416 Y127.233 E.27326
G1 X107.564 Y126.599 E.30006
G1 X107.864 Y126.021 E.30009
G1 X108.299 Y125.537 E.29994
G1 X108.841 Y125.175 E.30011
G1 X109.455 Y124.96 E.30001
G1 X110.104 Y124.904 E.30004
M73 P17 R6
G1 X110.746 Y125.012 E.30005
G1 X111.342 Y125.276 E.30005
G1 X111.853 Y125.679 E.30007
G1 X112.247 Y126.197 E.29999
G1 X112.501 Y126.797 E.30009
G1 X112.585 Y127.354 E.25969
G1 E-.8 F1800
G1 X151.129 Y113.902 F6000
G1 E.8 F2400
;TYPE:Bottom surface
;WIDTH:1.20977
G1 F630.087
G1 X152.47 Y115.243 E.88289
G1 X152.709 Y115.532 E.17485
G1 X152.934 Y115.887 E.19571
G1 X153.113 Y116.267 E.1958
G1 X153.243 Y116.667 E.19581
G1 X153.322 Y117.08 E.19576
G1 X153.346 Y117.466 E.17989
G1 X150.04 Y114.159 E2.17727
G1 X148.693 Y114.159 E.627
G1 X153.352 Y118.818 E3.06753
G1 X153.352 Y120.165 E.62699
G1 X147.346 Y114.159 E3.95424
G1 X145.999 Y114.159 E.627
G1 X153.352 Y121.511 E4.84095
G1 X153.352 Y122.858 E.62699
G1 X144.653 Y114.159 E5.72766
G1 X143.306 Y114.159 E.627
G1 X153.352 Y124.205 E6.61437
G1 X153.352 Y125.551 E.62699
G1 X141.959 Y114.159 E7.50108
G1 X140.613 Y114.159 E.627
M73 P18 R6
G1 X153.352 Y126.898 E8.38779
G1 X153.352 Y128.245 E.62699
G1 X139.266 Y114.159 E9.2745
G1 X137.919 Y114.159 E.627
G1 X153.352 Y129.591 E10.16121
G1 X153.352 Y130.938 E.62699
G1 X136.572 Y114.159 E11.04792
M73 P19 R6
G1 X135.226 Y114.159 E.627
G1 X153.352 Y132.285 E11.93463
G1 X153.352 Y133.632 E.62699
G1 X133.879 Y114.159 E12.82134
M73 P20 R6
G1 X132.532 Y114.159 E.627
G1 X153.352 Y134.978 E13.70804
G1 X153.352 Y136.325 E.62699
G1 X131.186 Y114.159 E14.59475
M73 P21 R6
G1 X129.839 Y114.159 E.627
G1 X139.76 Y124.08 E6.53213
G1 X139.353 Y124.11 E.19013
G1 X138.66 Y124.327 E.33769
M73 P22 R6
G1 X128.492 Y114.159 E6.69501
G1 X127.146 Y114.159 E.627
G1 X137.822 Y124.835 E7.02973
G1 X137.694 Y124.941 E.07738
M73 P23 R6
G1 X137.17 Y125.53 E.36693
G1 X125.799 Y114.159 E7.48711
G1 X124.452 Y114.159 E.627
G1 X137.083 Y126.79 E8.3168
G1 E-.8 F1800
G1 X136.875 Y126.75 F6000
G1 X136.884 Y126.7
G1 X137.009 Y126.316
M73 P24 R6
G1 X137.181 Y125.95
G1 X137.398 Y125.609
G1 X137.655 Y125.298
G1 X137.95 Y125.022
G1 X138.276 Y124.784
G1 X138.63 Y124.589
G1 X139.006 Y124.441
G1 X139.397 Y124.34
G1 X139.798 Y124.29
G1 X140.202 Y124.29
G1 X140.603 Y124.34
G1 X140.994 Y124.441
G1 X141.37 Y124.589
G1 X141.724 Y124.784
G1 X142.05 Y125.022
G1 X142.345 Y125.298
G1 X142.602 Y125.609
G1 X142.819 Y125.95
G1 X142.991 Y126.316
G1 X143.116 Y126.7
G1 X143.191 Y127.097
G1 X143.205 Y127.309
G1 X143.002 Y127.322
G1 E.8 F2400
G1 F630.087
G1 X153.339 Y137.658 E6.80596
G1 X153.322 Y137.92 E.12189
G1 X153.243 Y138.333 E.19576
G1 X153.098 Y138.765 E.21221
G1 X143.163 Y128.829 E6.54181
G1 X143.085 Y129.032 E.10098
G1 X142.946 Y129.285 E.13478
G1 X142.656 Y129.669 E.22384
G1 X152.594 Y139.607 E6.54351
G1 X152.441 Y139.792 E.11181
G1 X152.134 Y140.08 E.19577
M73 P25 R6
G1 X151.894 Y140.254 E.13806
G1 X141.962 Y130.322 E6.53958
G1 X141.852 Y130.412 E.0662
G1 X141.2 Y130.729 E.33734
G1 X141.066 Y130.772 E.06595
G1 X150.99 Y140.696 E6.53418
G1 X150.627 Y140.789 E.17408
G1 X150.21 Y140.842 E.19579
G1 X149.789 Y140.842 E.19631
G1 X139.874 Y130.927 E6.52807
G1 X139.353 Y130.89 E.24309
G1 X138.665 Y130.675 E.33568
G1 X138.404 Y130.553 E.1341
G1 X137.797 Y130.157 E.33762
G1 X137.232 Y129.561 E.38214
G1 X136.854 Y128.902 E.3538
M73 P26 R6
G1 X136.748 Y128.634 E.1341
G1 X136.587 Y127.997 E.30577
G1 X136.571 Y127.624 E.17398
G1 X123.105 Y114.159 E8.86604
G1 X121.759 Y114.159 E.627
G1 X148.442 Y140.842 E17.56896
G1 X147.095 Y140.842 E.62699
G1 X120.412 Y114.159 E17.56898
G1 X119.065 Y114.159 E.627
G1 X145.749 Y140.842 E17.569
G1 X144.402 Y140.842 E.62699
G1 X117.719 Y114.159 E17.56902
M73 P27 R6
G1 X116.372 Y114.158 E.627
G1 X143.055 Y140.842 E17.56904
M73 P28 R6
G1 X141.709 Y140.842 E.62699
G1 X115.025 Y114.158 E17.56906
M73 P28 R5
G1 X113.678 Y114.158 E.627
G1 X140.362 Y140.842 E17.56907
M73 P29 R5
G1 X139.015 Y140.842 E.62699
G1 X112.332 Y114.158 E17.56909
M73 P30 R5
G1 X110.985 Y114.158 E.627
G1 X137.668 Y140.842 E17.56911
M73 P31 R5
G1 X136.322 Y140.842 E.62698
G1 X109.638 Y114.158 E17.56913
G1 X108.292 Y114.158 E.627
G1 X134.975 Y140.842 E17.56915
M73 P32 R5
G1 X133.628 Y140.842 E.62699
G1 X106.945 Y114.158 E17.56917
M73 P33 R5
G1 X105.598 Y114.158 E.627
G1 X132.282 Y140.842 E17.56918
M73 P34 R5
G1 X130.935 Y140.842 E.62699
G1 X104.251 Y114.158 E17.5692
G1 X102.905 Y114.158 E.627
G1 X129.588 Y140.842 E17.56922
M73 P35 R5
G1 X128.242 Y140.842 E.62699
G1 X101.558 Y114.158 E17.56924
M73 P36 R5
G1 X100.211 Y114.158 E.627
G1 X110.112 Y124.059 E6.51884
M73 P37 R5
G1 X110.358 Y124.074 E.11462
G1 X110.929 Y124.183 E.2706
G1 X111.2 Y124.272 E.1331
G1 X111.853 Y124.588 E.33786
M73 P38 R5
G1 X112.518 Y125.139 E.40184
G1 X113.005 Y125.802 E.38317
G1 X113.297 Y126.503 E.35362
G1 X113.369 Y126.784 E.13475
G1 X113.438 Y127.385 E.28177
G1 X126.895 Y140.842 E8.86034
G1 X125.548 Y140.842 E.62699
G1 X113.27 Y128.563 E8.08469
G1 X113.005 Y129.198 E.32008
G1 X112.815 Y129.456 E.14904
G1 X124.202 Y140.842 E7.497
G1 X122.855 Y140.842 E.62699
M73 P39 R5
G1 X112.166 Y130.153 E7.03797
G1 X111.853 Y130.412 E.18898
G1 X111.331 Y130.665 E.27009
G1 X121.508 Y140.842 E6.70073
G1 X120.162 Y140.842 E.62699
G1 X109.818 Y130.498 E6.81064
G1 E-.8 F1800
M73 P40 R5
G1 X109.818 Y130.71 F6000
G1 X109.798 Y130.71
G1 X109.397 Y130.66
M73 P40 R4
G1 X109.006 Y130.559
G1 X108.63 Y130.411
G1 X108.276 Y130.216
G1 X107.95 Y129.978
G1 X107.655 Y129.702
G1 X107.398 Y129.391
G1 X107.181 Y129.05
G1 X107.009 Y128.684
G1 X106.884 Y128.3
G1 X106.809 Y127.903
G1 X106.783 Y127.5
G1 X106.809 Y127.097
G1 X106.884 Y126.7
G1 X107.009 Y126.316
G1 X107.181 Y125.95
G1 X107.398 Y125.609
G1 X107.655 Y125.298
G1 X107.95 Y125.022
G1 X108.276 Y124.784
G1 X108.63 Y124.589
G1 X109.006 Y124.441
G1 X109.233 Y124.383
G1 X109.283 Y124.576
G1 E.8 F2400
G1 F630.087
G1 X99.01 Y114.304 E6.76355
G1 X98.574 Y114.47 E.21722
G1 X98.206 Y114.673 E.19584
G1 X98.105 Y114.746 E.05772
G1 X108.039 Y124.679 E6.54065
G1 X107.916 Y124.758 E.06817
G1 X107.695 Y124.94 E.13311
M73 P41 R4
G1 X107.34 Y125.327 E.24451
G1 X97.406 Y115.393 E6.54086
G1 X97.291 Y115.532 E.084
G1 X97.066 Y115.887 E.19572
G1 X96.902 Y116.235 E.17931
G1 X106.828 Y126.161 E6.53554
G1 X106.791 Y126.228 E.03531
G1 X106.576 Y127.065 E.40236
G1 X106.574 Y127.254 E.08814
G1 X96.661 Y117.342 E6.52654
G1 X96.648 Y118.675 E.62087
G1 X118.815 Y140.842 E14.59512
M73 P42 R4
G1 X117.468 Y140.842 E.62699
G1 X96.648 Y120.022 E13.70842
G1 X96.648 Y121.369 E.62699
G1 X116.122 Y140.842 E12.82173
G1 X114.775 Y140.842 E.62699
G1 X96.648 Y122.715 E11.93504
G1 X96.648 Y124.062 E.62699
G1 X113.428 Y140.842 E11.04835
M73 P43 R4
G1 X112.081 Y140.842 E.62699
G1 X96.648 Y125.409 E10.16166
M73 P44 R4
G1 X96.648 Y126.755 E.62699
G1 X110.735 Y140.842 E9.27497
G1 X109.388 Y140.842 E.62699
G1 X96.648 Y128.102 E8.38828
M73 P45 R4
G1 X96.648 Y129.449 E.62699
G1 X108.041 Y140.842 E7.50159
G1 X106.695 Y140.842 E.62699
G1 X96.648 Y130.795 E6.6149
G1 X96.648 Y132.142 E.62699
G1 X105.348 Y140.842 E5.72821
M73 P46 R4
G1 X104.001 Y140.842 E.62699
G1 X96.648 Y133.489 E4.84151
G1 X96.648 Y134.835 E.62699
G1 X102.655 Y140.842 E3.95482
G1 X101.308 Y140.842 E.62699
G1 X96.648 Y136.182 E3.06813
M73 P47 R4
G1 X96.654 Y137.534 E.62951
G1 X99.961 Y140.842 E2.17788
G1 X99.79 Y140.842 E.07991
G1 X99.373 Y140.789 E.19578
G1 X98.965 Y140.685 E.19576
G1 X98.574 Y140.53 E.19573
G1 X98.206 Y140.327 E.19585
G1 X97.866 Y140.08 E.19574
G1 X97.656 Y139.883 E.13376
G1 X96.41 Y138.637 E.82083
; stop printing object 3dpr.stl id:0 copy 0
M106 S255
;LAYER_CHANGE
;Z:2.1
;HEIGHT:0.9
;BEFORE_LAYER_CHANGE
;2.1
G92 E0
M486 S-1
G1 Z1.200 F7200
;AFTER_LAYER_CHANGE
;2.1
;_SET_FAN_SPEED_CHANGING_LAYER
M104 S210 ; set nozzle temperature
M140 S65 ; set bed temperature
; printing object 3dpr.stl id:0 copy 0
M486 S0
M204 S700
;TYPE:Outer wall
;WIDTH:1.2
G1 F794.551
G1 Z1.201 X95.739 Y138.594 E0.00014
G1 Z1.204 X95.636 Y138.051 E0.00097
G1 Z1.207 X95.6 Y137.481 E0.00173
G1 Z1.315 X95.6 Y117.519 E0.93806
G1 Z1.318 X95.636 Y116.949 E0.02757
G1 Z1.321 X95.739 Y116.406 E0.02732
G1 Z1.324 X95.91 Y115.881 E0.02800
G1 Z1.327 X96.145 Y115.381 E0.02867
G1 Z1.329 X96.441 Y114.914 E0.02934
G1 Z1.332 X96.793 Y114.489 E0.03002
M73 P48 R4
G1 Z1.335 X97.196 Y114.111 E0.03069
G1 Z1.338 X97.643 Y113.786 E0.03136
G1 Z1.341 X98.127 Y113.52 E0.03203
G1 Z1.344 X98.641 Y113.316 E0.03270
G1 Z1.347 X99.176 Y113.179 E0.03338
G1 Z1.350 X99.724 Y113.11 E0.03404
G1 Z1.622 X150.333 Y113.117 E8.76094
G1 Z1.625 X150.824 Y113.179 E0.08621
G1 Z1.628 X151.359 Y113.316 E0.09689
G1 Z1.631 X151.873 Y113.52 E0.09757
G1 Z1.634 X152.357 Y113.786 E0.09825
G1 Z1.637 X152.804 Y114.111 E0.09891
G1 Z1.639 X153.207 Y114.489 E0.09959
M73 P49 R4
G1 Z1.642 X153.559 Y114.914 E0.10027
G1 Z1.645 X153.855 Y115.381 E0.10092
G1 Z1.648 X154.09 Y115.881 E0.10162
G1 Z1.651 X154.261 Y116.406 E0.10229
G1 Z1.654 X154.364 Y116.949 E0.10294
G1 Z1.657 X154.4 Y117.519 E0.10719
G1 Z1.765 X154.4 Y137.481 E4.62317
G1 Z1.768 X154.364 Y138.051 E0.13303
G1 Z1.771 X154.261 Y138.594 E0.12929
G1 Z1.774 X154.09 Y139.119 E0.12998
G1 Z1.777 X153.855 Y139.619 E0.13066
G1 Z1.779 X153.559 Y140.086 E0.13130
G1 Z1.782 X153.207 Y140.511 E0.13201
G1 Z1.785 X152.804 Y140.889 E0.13267
G1 Z1.788 X152.357 Y141.214 E0.13333
G1 Z1.791 X151.873 Y141.48 E0.13401
G1 Z1.794 X151.359 Y141.684 E0.13467
G1 Z1.797 X150.824 Y141.821 E0.13535
G1 Z1.800 X150.276 Y141.89 E0.13602
G1 Z2.072 X99.724 Y141.89 E18.07688
