; HEADER_BLOCK_START
; generated by OrcaSlicer 1.9.1 on 2025-02-24 at 17:16:23
; total layer number: 19
; filament_density: 1.24
; filament_diameter: 1.75
; max_z_height: 16.50
; HEADER_BLOCK_END

; THUMBNAIL_BLOCK_START

;
; THUMBNAIL_BLOCK_END

; external perimeters extrusion width = 1.20mm
; perimeters extrusion width = 1.20mm
; infill extrusion width = 1.20mm
; solid infill extrusion width = 1.20mm
; top infill extrusion width = 1.20mm
; first layer extrusion width = 1.20mm

; EXECUTABLE_BLOCK_START
M486 S0
M486 A3dpr.stl_id_0_copy_0
M486 S-1
M73 P0 R5
M201 X1000 Y1000 Z200 E5000
M203 X200 Y200 Z10 E60
M204 P1250 R1250 T1250
M205 X8.00 Y8.00 Z0.40 E5.00 ; sets the jerk limits, mm/sec
;TYPE:Custom
G21 ;metric values
G90 ;absolute positioning
M82 ;set extruder to absolute mode
M107 ;start with the fan off
G28 X0 Y0 ;move X/Y to min endstops
M300 S1318 P266
G28 Z0 ;move Z to min endstops
G0 Z0.2
 
M355 S1 ;oomlout light on
M140 S60 ;Start heating bed 
M104 S170 ; set extruder temp
M190 S60 ;Wait for bed to reach temp before proceeding
M109 S170 ; wait for extruder temp

G0 Z20 F200;oomlout lift
;temperature stuff before bed leveling


;G29 ;oomlout bed level commented for planning
 

;purge print head from bambu
M109 S215 ;set nozzle to common flush temp
G92 E0 ;zero the extruded length
G1 E50 F300

M355 S1 ;oomlout light on
M104 S215 ;Start heating extruder
M109 S215 ;Wait for extruder to reach temp before proceeding



g1 Z3 F200; move z up a bit (height from prusa)
G92 E0 ;zero the extruded length
G0 E50 F300 ;clean out a bit more from bambu



M355 S1 ;oomlout light on
;from prusa
; intro line
G92 E0 ;zero the extruded length
G1 X170 F4000
G1 Y10 F1000;move bed forward and down ready for wipe
G1 Z0.2 F720
M73 P1 R4
G1 X110 E8 F900
M73 P5 R4
G1 X40 E10 F700
M73 P7 R4
G1 X20 F4000 ; Quickly wipe away from the filament line
G92 E0


M355 S1 ;oomlout light on
M117 ; Printing…
G5
G90
G21
M83 ; use relative distances for extrusion
; filament start gcode
M106 S0
;LAYER_CHANGE
;Z:1.2
;HEIGHT:1.2
;BEFORE_LAYER_CHANGE
;1.2
G92 E0
M73 P10 R4
G1 Z1.2 F6000
;AFTER_LAYER_CHANGE
;1.2
;_SET_FAN_SPEED_CHANGING_LAYER
M204 S1000
; printing object 3dpr.stl id:0 copy 0
M73 P11 R4
G1 E-.8 F1800
M486 S0
G1 X97.219 Y114.092 F6000
G1 E.8 F2400
;TYPE:Outer wall
;WIDTH:1.27752
M73 P12 R4
G1 F588.235
M73 P14 R4
G1 X97.668 Y113.771 E.27543
G1 X98.154 Y113.508 E.27543
M73 P15 R4
G1 X98.669 Y113.308 E.27547
G1 X99.205 Y113.174 E.2755
G1 X99.753 Y113.109 E.27543
G1 X150.247 Y113.11 E25.18118
G1 X150.853 Y113.185 E.30471
G1 X151.387 Y113.326 E.27552
G1 X151.899 Y113.533 E.27546
G1 X152.382 Y113.802 E.27539
G1 X152.826 Y114.13 E.27543
G1 X153.226 Y114.511 E.27547
M73 P17 R4
G1 X153.576 Y114.939 E.27547
G1 X153.868 Y115.407 E.27548
G1 X154.1 Y115.908 E.27539
G1 X154.267 Y116.435 E.27549
G1 X154.367 Y116.978 E.2754
G1 X154.4 Y117.519 E.27023
G1 X154.4 Y137.481 E9.95527
G1 X154.36 Y138.081 E.29959
G1 X154.253 Y138.622 E.27543
G1 X154.078 Y139.146 E.27542
G1 X153.84 Y139.645 E.27549
G1 X153.541 Y140.109 E.27544
G1 X153.186 Y140.532 E.2755
M73 P18 R4
G1 X152.781 Y140.908 E.27541
G1 X152.332 Y141.229 E.27543
G1 X151.846 Y141.492 E.27543
G1 X151.331 Y141.692 E.27547
G1 X150.795 Y141.826 E.2755
G1 X150.247 Y141.891 E.27543
G1 X99.694 Y141.888 E25.21056
G1 X99.147 Y141.815 E.27543
G1 X98.613 Y141.674 E.27552
G1 X98.101 Y141.467 E.27546
G1 X97.618 Y141.198 E.27539
G1 X97.174 Y140.87 E.27543
G1 X96.774 Y140.489 E.27547
M73 P20 R4
G1 X96.424 Y140.061 E.27547
G1 X96.132 Y139.593 E.27548
G1 X95.9 Y139.092 E.27539
G1 X95.733 Y138.565 E.27549
G1 X95.633 Y138.022 E.2754
M73 P20 R3
G1 X95.616 Y137.752 E.13511
;WIDTH:1.23876
G1 F611.472
G1 X95.6 Y137.481 E.12998
;WIDTH:1.2
G1 F636.62
G1 X95.6 Y117.519 E9.19864
;WIDTH:1.23876
G1 F611.472
G1 X95.601 Y117.493 E.01259
;WIDTH:1.27752
G1 F588.235
G1 X95.64 Y116.919 E.28651
G1 X95.747 Y116.378 E.27543
G1 X95.922 Y115.854 E.27542
M73 P21 R3
G1 X96.16 Y115.355 E.27549
G1 X96.459 Y114.891 E.27544
G1 X96.814 Y114.468 E.2755
G1 X97.202 Y114.109 E.26344
; stop printing object 3dpr.stl id:0 copy 0
M106 S255
;LAYER_CHANGE
;Z:2.1
;HEIGHT:0.9
;BEFORE_LAYER_CHANGE
;2.1
G92 E0
M486 S-1
G1 Z1.200 F7200
;AFTER_LAYER_CHANGE
;2.1
;_SET_FAN_SPEED_CHANGING_LAYER
M104 S210 ; set nozzle temperature
M140 S65 ; set bed temperature
; printing object 3dpr.stl id:0 copy 0
M486 S0
M204 S700
;WIDTH:1.2
G1 F794.551
G1 Z1.203 X97.643 Y113.786 E0.00066
G1 Z1.206 X98.127 Y113.52 E0.00134
G1 Z1.209 X98.641 Y113.316 E0.00201
G1 Z1.212 X99.176 Y113.179 E0.00268
G1 Z1.215 X99.724 Y113.11 E0.00335
G1 Z1.487 X150.337 Y113.118 E5.94979
G1 Z1.489 X150.824 Y113.179 E0.05822
G1 Z1.492 X151.359 Y113.316 E0.06621
G1 Z1.495 X151.873 Y113.52 E0.06687
G1 Z1.498 X152.357 Y113.786 E0.06755
G1 Z1.501 X152.804 Y114.111 E0.06822
G1 Z1.504 X153.207 Y114.489 E0.06890
M73 P22 R3
G1 Z1.507 X153.559 Y114.914 E0.06958
G1 Z1.510 X153.855 Y115.381 E0.07023
G1 Z1.513 X154.09 Y115.881 E0.07092
G1 Z1.516 X154.261 Y116.406 E0.07159
G1 Z1.519 X154.364 Y116.949 E0.07225
G1 Z1.522 X154.4 Y117.519 E0.07545
G1 Z1.629 X154.4 Y137.481 E3.51398
G1 Z1.632 X154.364 Y138.051 E0.10129
G1 Z1.635 X154.261 Y138.594 E0.09860
G1 Z1.638 X154.09 Y139.119 E0.09929
G1 Z1.641 X153.855 Y139.619 E0.09997
G1 Z1.644 X153.559 Y140.086 E0.10061
G1 Z1.647 X153.207 Y140.511 E0.10131
M73 P23 R3
G1 Z1.650 X152.804 Y140.889 E0.10197
G1 Z1.653 X152.357 Y141.214 E0.10263
G1 Z1.656 X151.873 Y141.48 E0.10332
G1 Z1.659 X151.359 Y141.684 E0.10398
G1 Z1.662 X150.824 Y141.821 E0.10466
G1 Z1.665 X150.276 Y141.89 E0.10532
G1 Z1.936 X99.724 Y141.89 E15.26797
G1 Z1.939 X99.176 Y141.821 E0.16751
G1 Z1.942 X98.641 Y141.684 E0.16818
G1 Z1.945 X98.127 Y141.48 E0.16885
G1 Z1.948 X97.643 Y141.214 E0.16953
G1 Z1.951 X97.196 Y140.889 E0.17018
G1 Z1.954 X96.793 Y140.511 E0.17088
M73 P24 R3
G1 Z1.957 X96.441 Y140.086 E0.17157
G1 Z1.960 X96.145 Y139.619 E0.17219
G1 Z1.963 X95.91 Y139.119 E0.17290
G1 Z1.966 X95.739 Y138.594 E0.17358
G1 Z1.969 X95.636 Y138.051 E0.17421
G1 Z1.972 X95.6 Y137.481 E0.18091
G1 Z2.079 X95.6 Y117.519 E7.19911
G1 Z2.082 X95.636 Y116.949 E0.20675
G1 Z2.085 X95.739 Y116.406 E0.20056
G1 Z2.088 X95.91 Y115.881 E0.20127
G1 Z2.091 X96.145 Y115.381 E0.20196
G1 Z2.094 X96.441 Y114.914 E0.20257
G1 Z2.097 X96.793 Y114.489 E0.20330
M73 P25 R3
G1 Z2.100 X97.196 Y114.111 E0.20395
G1 Z2.100 X97.201 Y114.107 E0.00208
; stop printing object 3dpr.stl id:0 copy 0
;LAYER_CHANGE
;Z:3
;HEIGHT:0.9
;BEFORE_LAYER_CHANGE
;3
G92 E0
M486 S-1
G1 Z2.100 F7200
;AFTER_LAYER_CHANGE
;3
;_SET_FAN_SPEED_CHANGING_LAYER
; printing object 3dpr.stl id:0 copy 0
M486 S0
G1 F794.551
G1 Z2.103 X97.643 Y113.786 E.20186
G1 Z2.106 X98.127 Y113.52 E.20396
G1 Z2.109 X98.641 Y113.316 E.20394
G1 Z2.112 X99.176 Y113.179 E.20395
G1 Z2.115 X99.724 Y113.11 E.20392
G1 Z2.387 X150.371 Y113.122 E18.69928
G1 Z2.389 X150.824 Y113.179 E.16879
G1 Z2.392 X151.359 Y113.316 E.20395
G1 Z2.395 X151.873 Y113.52 E.20395
G1 Z2.398 X152.357 Y113.786 E.20396
G1 Z2.401 X152.804 Y114.111 E.20393
G1 Z2.404 X153.207 Y114.489 E.20396
M73 P26 R3
G1 Z2.407 X153.559 Y114.914 E.20398
G1 Z2.410 X153.855 Y115.381 E.20392
G1 Z2.413 X154.09 Y115.881 E.20398
G1 Z2.416 X154.261 Y116.406 E.20397
G1 Z2.419 X154.364 Y116.949 E.20393
G1 Z2.422 X154.4 Y117.519 E.21093
G1 Z2.529 X154.4 Y137.481 E7.37025
G1 Z2.532 X154.364 Y138.051 E.21093
G1 Z2.535 X154.261 Y138.594 E.20393
G1 Z2.538 X154.09 Y139.119 E.20397
G1 Z2.541 X153.855 Y139.619 E.20398
G1 Z2.544 X153.559 Y140.086 E.20392
G1 Z2.547 X153.207 Y140.511 E.20398
M73 P27 R3
G1 Z2.550 X152.804 Y140.889 E.20396
G1 Z2.553 X152.357 Y141.214 E.20394
G1 Z2.556 X151.873 Y141.48 E.20396
G1 Z2.559 X151.359 Y141.684 E.20394
G1 Z2.562 X150.824 Y141.821 E.20395
G1 Z2.565 X150.276 Y141.89 E.20395
G1 Z2.836 X99.724 Y141.89 E18.66438
G1 Z2.839 X99.176 Y141.821 E.20394
G1 Z2.842 X98.641 Y141.684 E.20395
G1 Z2.845 X98.127 Y141.48 E.20395
G1 Z2.848 X97.643 Y141.214 E.20396
G1 Z2.851 X97.196 Y140.889 E.20393
G1 Z2.854 X96.793 Y140.511 E.20396
M73 P28 R3
G1 Z2.857 X96.441 Y140.086 E.20398
G1 Z2.860 X96.145 Y139.619 E.20392
G1 Z2.863 X95.91 Y139.119 E.20398
G1 Z2.866 X95.739 Y138.594 E.20397
G1 Z2.869 X95.636 Y138.051 E.20393
G1 Z2.872 X95.6 Y137.481 E.21093
G1 Z2.979 X95.6 Y117.519 E7.37025
G1 Z2.982 X95.636 Y116.949 E.21093
G1 Z2.985 X95.739 Y116.406 E.20393
G1 Z2.988 X95.91 Y115.881 E.20397
G1 Z2.991 X96.145 Y115.381 E.20398
G1 Z2.994 X96.441 Y114.914 E.20392
G1 Z2.997 X96.793 Y114.489 E.20398
M73 P29 R3
G1 Z3.000 X97.196 Y114.111 E.20396
G1 Z3.000 X97.201 Y114.107 E.00208
; stop printing object 3dpr.stl id:0 copy 0
;LAYER_CHANGE
;Z:3.9
;HEIGHT:0.9
;BEFORE_LAYER_CHANGE
;3.9
G92 E0
M486 S-1
G1 Z3.000 F7200
;AFTER_LAYER_CHANGE
;3.9
;_SET_FAN_SPEED_CHANGING_LAYER
; printing object 3dpr.stl id:0 copy 0
M486 S0
G1 F794.551
G1 Z3.003 X97.643 Y113.786 E.20185
G1 Z3.006 X98.127 Y113.52 E.20396
G1 Z3.009 X98.641 Y113.316 E.20395
G1 Z3.012 X99.176 Y113.179 E.20395
G1 Z3.015 X99.724 Y113.11 E.20394
G1 Z3.287 X150.367 Y113.121 E18.69778
G1 Z3.289 X150.824 Y113.179 E.17028
G1 Z3.292 X151.359 Y113.316 E.20395
G1 Z3.295 X151.873 Y113.52 E.20394
G1 Z3.298 X152.357 Y113.786 E.20396
G1 Z3.301 X152.804 Y114.111 E.20393
G1 Z3.304 X153.207 Y114.489 E.20396
M73 P30 R3
G1 Z3.307 X153.559 Y114.914 E.20398
G1 Z3.310 X153.855 Y115.381 E.20392
G1 Z3.313 X154.09 Y115.881 E.20398
G1 Z3.316 X154.261 Y116.406 E.20397
G1 Z3.319 X154.364 Y116.949 E.20393
G1 Z3.322 X154.4 Y117.519 E.21093
G1 Z3.429 X154.4 Y137.481 E7.37025
M73 P31 R3
G1 Z3.432 X154.364 Y138.051 E.21093
G1 Z3.435 X154.261 Y138.594 E.20393
G1 Z3.438 X154.09 Y139.119 E.20397
G1 Z3.441 X153.855 Y139.619 E.20398
G1 Z3.444 X153.559 Y140.086 E.20392
G1 Z3.447 X153.207 Y140.511 E.20398
G1 Z3.450 X152.804 Y140.889 E.20396
G1 Z3.453 X152.357 Y141.214 E.20393
G1 Z3.456 X151.873 Y141.48 E.20396
G1 Z3.459 X151.359 Y141.684 E.20395
G1 Z3.462 X150.824 Y141.821 E.20395
G1 Z3.465 X150.276 Y141.89 E.20394
G1 Z3.736 X99.724 Y141.89 E18.66438
G1 Z3.739 X99.176 Y141.821 E.20395
G1 Z3.742 X98.641 Y141.684 E.20395
G1 Z3.745 X98.127 Y141.48 E.20394
G1 Z3.748 X97.643 Y141.214 E.20396
G1 Z3.751 X97.196 Y140.889 E.20393
G1 Z3.754 X96.793 Y140.511 E.20396
M73 P33 R3
G1 Z3.757 X96.441 Y140.086 E.20398
G1 Z3.760 X96.145 Y139.619 E.20392
G1 Z3.763 X95.91 Y139.119 E.20398
G1 Z3.766 X95.739 Y138.594 E.20397
G1 Z3.769 X95.636 Y138.051 E.20393
G1 Z3.772 X95.6 Y137.481 E.21093
G1 Z3.879 X95.6 Y117.519 E7.37025
G1 Z3.882 X95.636 Y116.949 E.21093
G1 Z3.885 X95.739 Y116.406 E.20393
G1 Z3.888 X95.91 Y115.881 E.20397
G1 Z3.891 X96.145 Y115.381 E.20398
G1 Z3.894 X96.441 Y114.914 E.20392
G1 Z3.897 X96.793 Y114.489 E.20398
G1 Z3.900 X97.196 Y114.111 E.20396
G1 Z3.900 X97.201 Y114.107 E.00208
; stop printing object 3dpr.stl id:0 copy 0
;LAYER_CHANGE
;Z:4.8
;HEIGHT:0.9
;BEFORE_LAYER_CHANGE
;4.8
G92 E0
M486 S-1
G1 Z3.900 F7200
;AFTER_LAYER_CHANGE
;4.8
;_SET_FAN_SPEED_CHANGING_LAYER
; printing object 3dpr.stl id:0 copy 0
M486 S0
G1 F794.551
G1 Z3.903 X97.643 Y113.786 E.20185
G1 Z3.906 X98.127 Y113.52 E.20396
G1 Z3.909 X98.641 Y113.316 E.20394
G1 Z3.912 X99.176 Y113.179 E.20395
G1 Z3.915 X99.724 Y113.11 E.20394
G1 Z4.186 X150.276 Y113.11 E18.66438
G1 Z4.187 X150.4 Y113.126 E.04608
G1 Z4.189 X150.824 Y113.179 E.15786
G1 Z4.192 X151.359 Y113.316 E.20395
G1 Z4.195 X151.873 Y113.52 E.20394
G1 Z4.198 X152.357 Y113.786 E.20396
G1 Z4.201 X152.804 Y114.111 E.20393
M73 P35 R3
G1 Z4.204 X153.207 Y114.489 E.20396
G1 Z4.207 X153.559 Y114.914 E.20398
G1 Z4.210 X153.855 Y115.381 E.20392
G1 Z4.213 X154.09 Y115.881 E.20398
G1 Z4.216 X154.261 Y116.406 E.20397
G1 Z4.219 X154.364 Y116.949 E.20393
G1 Z4.222 X154.4 Y117.519 E.21093
G1 Z4.329 X154.4 Y137.481 E7.37025
G1 Z4.332 X154.364 Y138.051 E.21093
G1 Z4.335 X154.261 Y138.594 E.20393
G1 Z4.338 X154.09 Y139.119 E.20397
G1 Z4.341 X153.855 Y139.619 E.20397
G1 Z4.344 X153.559 Y140.086 E.20392
G1 Z4.347 X153.207 Y140.511 E.20398
G1 Z4.350 X152.804 Y140.889 E.20396
G1 Z4.353 X152.357 Y141.214 E.20394
G1 Z4.356 X151.873 Y141.48 E.20396
G1 Z4.359 X151.359 Y141.684 E.20394
G1 Z4.362 X150.824 Y141.821 E.20395
G1 Z4.365 X150.276 Y141.89 E.20394
G1 Z4.636 X99.724 Y141.89 E18.66438
G1 Z4.639 X99.176 Y141.821 E.20395
G1 Z4.642 X98.641 Y141.684 E.20395
G1 Z4.645 X98.127 Y141.48 E.20394
G1 Z4.648 X97.643 Y141.214 E.20396
G1 Z4.651 X97.196 Y140.889 E.20393
G1 Z4.654 X96.793 Y140.511 E.20396
M73 P37 R3
G1 Z4.657 X96.441 Y140.086 E.20398
G1 Z4.660 X96.145 Y139.619 E.20392
G1 Z4.663 X95.91 Y139.119 E.20398
G1 Z4.666 X95.739 Y138.594 E.20397
G1 Z4.669 X95.636 Y138.051 E.20393
G1 Z4.672 X95.6 Y137.481 E.21093
G1 Z4.779 X95.6 Y117.519 E7.37025
G1 Z4.782 X95.636 Y116.949 E.21093
G1 Z4.785 X95.739 Y116.406 E.20393
G1 Z4.788 X95.91 Y115.881 E.20397
G1 Z4.791 X96.145 Y115.381 E.20397
G1 Z4.794 X96.441 Y114.914 E.20392
G1 Z4.797 X96.793 Y114.489 E.20398
G1 Z4.800 X97.196 Y114.111 E.20396
G1 Z4.800 X97.201 Y114.107 E.00208
; stop printing object 3dpr.stl id:0 copy 0
;LAYER_CHANGE
;Z:5.7
;HEIGHT:0.9
;BEFORE_LAYER_CHANGE
;5.7
G92 E0
M486 S-1
G1 Z4.800 F7200
;AFTER_LAYER_CHANGE
;5.7
;_SET_FAN_SPEED_CHANGING_LAYER
; printing object 3dpr.stl id:0 copy 0
M486 S0
G1 F794.551
G1 Z4.803 X97.643 Y113.786 E.20185
G1 Z4.806 X98.127 Y113.52 E.20396
G1 Z4.809 X98.641 Y113.316 E.20394
M73 P38 R3
G1 Z4.812 X99.176 Y113.179 E.20395
G1 Z4.815 X99.724 Y113.11 E.20394
G1 Z5.086 X150.276 Y113.11 E18.66438
G1 Z5.087 X150.433 Y113.13 E.0585
G1 Z5.089 X150.824 Y113.179 E.14544
G1 Z5.092 X151.359 Y113.316 E.20395
G1 Z5.095 X151.873 Y113.52 E.20394
G1 Z5.098 X152.357 Y113.786 E.20396
G1 Z5.101 X152.804 Y114.111 E.20393
M73 P39 R3
G1 Z5.104 X153.207 Y114.489 E.20396
G1 Z5.107 X153.559 Y114.914 E.20398
G1 Z5.110 X153.855 Y115.381 E.20392
G1 Z5.113 X154.09 Y115.881 E.20398
G1 Z5.116 X154.261 Y116.406 E.20397
G1 Z5.119 X154.364 Y116.949 E.20393
G1 Z5.122 X154.4 Y117.519 E.21093
G1 Z5.229 X154.4 Y137.481 E7.37025
G1 Z5.232 X154.364 Y138.051 E.21093
G1 Z5.235 X154.261 Y138.594 E.20393
G1 Z5.238 X154.09 Y139.119 E.20397
G1 Z5.241 X153.855 Y139.619 E.20397
G1 Z5.244 X153.559 Y140.086 E.20392
G1 Z5.247 X153.207 Y140.511 E.20398
M73 P40 R3
G1 Z5.250 X152.804 Y140.889 E.20396
G1 Z5.253 X152.357 Y141.214 E.20393
G1 Z5.256 X151.873 Y141.48 E.20396
G1 Z5.259 X151.359 Y141.684 E.20394
G1 Z5.262 X150.824 Y141.821 E.20395
G1 Z5.265 X150.276 Y141.89 E.20394
G1 Z5.536 X99.724 Y141.89 E18.66438
G1 Z5.539 X99.176 Y141.821 E.20395
G1 Z5.542 X98.641 Y141.684 E.20395
G1 Z5.545 X98.127 Y141.48 E.20394
G1 Z5.548 X97.643 Y141.214 E.20396
G1 Z5.551 X97.196 Y140.889 E.20393
G1 Z5.554 X96.793 Y140.511 E.20396
M73 P41 R2
G1 Z5.557 X96.441 Y140.086 E.20398
G1 Z5.560 X96.145 Y139.619 E.20392
G1 Z5.563 X95.91 Y139.119 E.20398
G1 Z5.566 X95.739 Y138.594 E.20397
G1 Z5.569 X95.636 Y138.051 E.20393
G1 Z5.572 X95.6 Y137.481 E.21093
G1 Z5.679 X95.6 Y117.519 E7.37025
G1 Z5.682 X95.636 Y116.949 E.21093
G1 Z5.685 X95.739 Y116.406 E.20393
G1 Z5.688 X95.91 Y115.881 E.20397
G1 Z5.691 X96.145 Y115.381 E.20397
G1 Z5.694 X96.441 Y114.914 E.20392
G1 Z5.697 X96.793 Y114.489 E.20398
M73 P42 R2
G1 Z5.700 X97.196 Y114.111 E.20396
G1 Z5.700 X97.201 Y114.107 E.00208
; stop printing object 3dpr.stl id:0 copy 0
;LAYER_CHANGE
;Z:6.6
;HEIGHT:0.9
;BEFORE_LAYER_CHANGE
;6.6
G92 E0
M486 S-1
G1 Z5.700 F7200
;AFTER_LAYER_CHANGE
;6.6
;_SET_FAN_SPEED_CHANGING_LAYER
; printing object 3dpr.stl id:0 copy 0
M486 S0
G1 F794.551
G1 Z5.703 X97.643 Y113.786 E.20185
G1 Z5.706 X98.127 Y113.52 E.20396
G1 Z5.709 X98.641 Y113.316 E.20394
G1 Z5.712 X99.176 Y113.179 E.20395
G1 Z5.715 X99.724 Y113.11 E.20395
G1 Z5.986 X150.276 Y113.11 E18.66438
G1 Z5.987 X150.467 Y113.134 E.07092
G1 Z5.989 X150.824 Y113.179 E.13303
G1 Z5.992 X151.359 Y113.316 E.20395
G1 Z5.995 X151.873 Y113.52 E.20394
G1 Z5.998 X152.357 Y113.786 E.20396
G1 Z6.001 X152.804 Y114.111 E.20393
M73 P43 R2
G1 Z6.004 X153.207 Y114.489 E.20396
G1 Z6.007 X153.559 Y114.914 E.20398
G1 Z6.010 X153.855 Y115.381 E.20392
G1 Z6.013 X154.09 Y115.881 E.20398
G1 Z6.016 X154.261 Y116.406 E.20397
G1 Z6.019 X154.364 Y116.949 E.20393
G1 Z6.022 X154.4 Y117.519 E.21093
G1 Z6.129 X154.4 Y137.481 E7.37025
