; HEADER_BLOCK_START
; generated by OrcaSlicer 1.9.1 on 2025-02-24 at 17:17:27
; total layer number: 20
; filament_density: 1.24
; filament_diameter: 1.75
; max_z_height: 17.10
; HEADER_BLOCK_END

; THUMBNAIL_BLOCK_START

;
; THUMBNAIL_BLOCK_END

; external perimeters extrusion width = 1.20mm
; perimeters extrusion width = 1.20mm
; infill extrusion width = 1.20mm
; solid infill extrusion width = 1.20mm
; top infill extrusion width = 1.20mm
; first layer extrusion width = 1.20mm

; EXECUTABLE_BLOCK_START
M486 S0
M486 A3dpr.stl_id_0_copy_0
M486 S-1
M73 P0 R5
M201 X1000 Y1000 Z200 E5000
M203 X200 Y200 Z10 E60
M204 P1250 R1250 T1250
M205 X8.00 Y8.00 Z0.40 E5.00 ; sets the jerk limits, mm/sec
;TYPE:Custom
G21 ;metric values
G90 ;absolute positioning
M82 ;set extruder to absolute mode
M107 ;start with the fan off
G28 X0 Y0 ;move X/Y to min endstops
M300 S1318 P266
G28 Z0 ;move Z to min endstops
G0 Z0.2
 
M355 S1 ;oomlout light on
M140 S60 ;Start heating bed 
M104 S170 ; set extruder temp
M190 S60 ;Wait for bed to reach temp before proceeding
M109 S170 ; wait for extruder temp

G0 Z20 F200;oomlout lift
;temperature stuff before bed leveling


;G29 ;oomlout bed level commented for planning
 

;purge print head from bambu
M109 S215 ;set nozzle to common flush temp
G92 E0 ;zero the extruded length
G1 E50 F300

M355 S1 ;oomlout light on
M104 S215 ;Start heating extruder
M109 S215 ;Wait for extruder to reach temp before proceeding



g1 Z3 F200; move z up a bit (height from prusa)
G92 E0 ;zero the extruded length
G0 E50 F300 ;clean out a bit more from bambu



M355 S1 ;oomlout light on
;from prusa
; intro line
G92 E0 ;zero the extruded length
G1 X170 F4000
G1 Y10 F1000;move bed forward and down ready for wipe
G1 Z0.2 F720
M73 P1 R5
G1 X110 E8 F900
M73 P5 R4
G1 X40 E10 F700
M73 P6 R4
G1 X20 F4000 ; Quickly wipe away from the filament line
G92 E0


M355 S1 ;oomlout light on
M117 ; Printing…
G5
G90
G21
M83 ; use relative distances for extrusion
; filament start gcode
M106 S0
;LAYER_CHANGE
;Z:0.9
;HEIGHT:0.9
;BEFORE_LAYER_CHANGE
;0.9
G92 E0
M73 P10 R4
G1 Z.9 F6000
;AFTER_LAYER_CHANGE
;0.9
;_SET_FAN_SPEED_CHANGING_LAYER
M204 S1000
; printing object 3dpr.stl id:0 copy 0
G1 E-.8 F1800
M486 S0
M73 P11 R4
G1 X97.221 Y114.091 F6000
G1 E.8 F2400
;TYPE:Outer wall
;WIDTH:1.21314
M73 P12 R4
G1 F784.314
M73 P14 R4
G1 X97.67 Y113.77 E.20657
G1 X98.156 Y113.507 E.20657
G1 X98.671 Y113.308 E.2066
G1 X99.207 Y113.174 E.20662
M73 P15 R4
G1 X99.755 Y113.109 E.20657
G1 X150.308 Y113.113 E18.90791
G1 X150.855 Y113.186 E.20657
G1 X151.389 Y113.327 E.20663
G1 X151.901 Y113.534 E.20659
G1 X152.383 Y113.804 E.20654
G1 X152.828 Y114.131 E.20656
G1 X153.228 Y114.512 E.20659
M73 P16 R4
G1 X153.577 Y114.94 E.20659
G1 X153.869 Y115.409 E.20661
G1 X154.101 Y115.91 E.20653
G1 X154.268 Y116.437 E.20661
G1 X154.367 Y116.98 E.20654
G1 X154.4 Y117.519 E.20191
;WIDTH:1.2
G1 F794.551
G1 X154.4 Y137.481 E7.37025
;WIDTH:1.21314
G1 F784.314
G1 X154.359 Y138.083 E.22544
G1 X154.252 Y138.624 E.20657
G1 X154.078 Y139.148 E.20656
G1 X153.839 Y139.646 E.20661
G1 X153.54 Y140.111 E.20658
M73 P17 R4
G1 X153.184 Y140.534 E.20661
G1 X152.779 Y140.909 E.20655
G1 X152.33 Y141.23 E.20657
G1 X151.844 Y141.493 E.20657
G1 X151.329 Y141.692 E.2066
G1 X150.793 Y141.826 E.20662
G1 X150.245 Y141.891 E.20657
G1 X99.692 Y141.887 E18.90791
G1 X99.145 Y141.814 E.20657
G1 X98.611 Y141.673 E.20663
G1 X98.099 Y141.466 E.20659
G1 X97.617 Y141.196 E.20654
G1 X97.172 Y140.869 E.20656
G1 X96.772 Y140.488 E.20659
M73 P18 R4
G1 X96.423 Y140.06 E.20659
G1 X96.131 Y139.591 E.20661
G1 X95.899 Y139.09 E.20653
G1 X95.732 Y138.563 E.20661
G1 X95.633 Y138.02 E.20654
G1 X95.6 Y137.481 E.20191
;WIDTH:1.2
G1 F794.551
G1 X95.6 Y117.519 E7.37025
;WIDTH:1.21314
G1 F784.314
G1 X95.641 Y116.917 E.22544
G1 X95.748 Y116.376 E.20657
G1 X95.922 Y115.852 E.20656
G1 X96.161 Y115.354 E.20661
G1 X96.46 Y114.889 E.20658
M73 P19 R4
G1 X96.816 Y114.466 E.20661
G1 X97.203 Y114.107 E.19757
; stop printing object 3dpr.stl id:0 copy 0
M106 S255
;LAYER_CHANGE
;Z:1.8
;HEIGHT:0.9
;BEFORE_LAYER_CHANGE
;1.8
G92 E0
M486 S-1
G1 Z0.900 F7200
;AFTER_LAYER_CHANGE
;1.8
;_SET_FAN_SPEED_CHANGING_LAYER
M104 S210 ; set nozzle temperature
M140 S65 ; set bed temperature
; printing object 3dpr.stl id:0 copy 0
M486 S0
M204 S700
;WIDTH:1.2
G1 F794.551
G1 Z0.903 X97.643 Y113.786 E0.00065
G1 Z0.906 X98.127 Y113.52 E0.00134
G1 Z0.909 X98.641 Y113.316 E0.00201
G1 Z0.912 X99.176 Y113.179 E0.00268
G1 Z0.915 X99.724 Y113.11 E0.00335
G1 Z1.186 X150.326 Y113.116 E5.94710
G1 Z1.189 X150.824 Y113.179 E0.05955
G1 Z1.192 X151.359 Y113.316 E0.06620
G1 Z1.195 X151.873 Y113.52 E0.06687
G1 Z1.198 X152.357 Y113.786 E0.06755
G1 Z1.201 X152.804 Y114.111 E0.06821
G1 Z1.204 X153.207 Y114.489 E0.06890
M73 P20 R4
G1 Z1.207 X153.559 Y114.914 E0.06957
G1 Z1.210 X153.855 Y115.381 E0.07023
G1 Z1.213 X154.09 Y115.881 E0.07092
G1 Z1.216 X154.261 Y116.406 E0.07159
G1 Z1.219 X154.364 Y116.949 E0.07225
G1 Z1.222 X154.4 Y117.519 E0.07545
G1 Z1.329 X154.4 Y137.481 E3.51392
G1 Z1.332 X154.364 Y138.051 E0.10128
G1 Z1.335 X154.261 Y138.594 E0.09860
G1 Z1.338 X154.09 Y139.119 E0.09929
G1 Z1.341 X153.855 Y139.619 E0.09996
G1 Z1.344 X153.559 Y140.086 E0.10061
G1 Z1.347 X153.207 Y140.511 E0.10131
M73 P21 R4
G1 Z1.350 X152.804 Y140.889 E0.10197
G1 Z1.353 X152.357 Y141.214 E0.10263
G1 Z1.356 X151.873 Y141.48 E0.10332
G1 Z1.359 X151.359 Y141.684 E0.10398
G1 Z1.362 X150.824 Y141.821 E0.10465
G1 Z1.365 X150.276 Y141.89 E0.10533
G1 Z1.636 X99.724 Y141.89 E15.26781
G1 Z1.639 X99.176 Y141.821 E0.16751
G1 Z1.642 X98.641 Y141.684 E0.16818
G1 Z1.645 X98.127 Y141.48 E0.16884
G1 Z1.648 X97.643 Y141.214 E0.16953
G1 Z1.651 X97.196 Y140.889 E0.17018
G1 Z1.654 X96.793 Y140.511 E0.17088
M73 P22 R3
G1 Z1.657 X96.441 Y140.086 E0.17157
G1 Z1.660 X96.145 Y139.619 E0.17219
G1 Z1.663 X95.91 Y139.119 E0.17290
G1 Z1.666 X95.739 Y138.594 E0.17357
G1 Z1.669 X95.636 Y138.051 E0.17421
G1 Z1.672 X95.6 Y137.481 E0.18091
G1 Z1.779 X95.6 Y117.519 E7.19905
G1 Z1.782 X95.636 Y116.949 E0.20675
G1 Z1.785 X95.739 Y116.406 E0.20056
G1 Z1.788 X95.91 Y115.881 E0.20127
G1 Z1.791 X96.145 Y115.381 E0.20195
G1 Z1.794 X96.441 Y114.914 E0.20257
G1 Z1.797 X96.793 Y114.489 E0.20330
M73 P23 R3
G1 Z1.800 X97.196 Y114.111 E0.20395
G1 Z1.800 X97.202 Y114.106 E0.00283
; stop printing object 3dpr.stl id:0 copy 0
;LAYER_CHANGE
;Z:2.7
;HEIGHT:0.9
;BEFORE_LAYER_CHANGE
;2.7
G92 E0
M486 S-1
G1 Z1.800 F7200
;AFTER_LAYER_CHANGE
;2.7
;_SET_FAN_SPEED_CHANGING_LAYER
; printing object 3dpr.stl id:0 copy 0
M486 S0
G1 F794.551
G1 Z1.803 X97.643 Y113.786 E.20111
G1 Z1.806 X98.127 Y113.52 E.20396
G1 Z1.809 X98.641 Y113.316 E.20394
G1 Z1.812 X99.176 Y113.179 E.20395
G1 Z1.815 X99.724 Y113.11 E.20392
G1 Z2.087 X150.36 Y113.12 E18.69518
G1 Z2.089 X150.824 Y113.179 E.17293
G1 Z2.092 X151.359 Y113.316 E.20395
G1 Z2.095 X151.873 Y113.52 E.20394
G1 Z2.098 X152.357 Y113.786 E.20396
G1 Z2.101 X152.804 Y114.111 E.20393
G1 Z2.104 X153.207 Y114.489 E.20396
M73 P24 R3
G1 Z2.107 X153.559 Y114.914 E.20398
G1 Z2.110 X153.855 Y115.381 E.20392
G1 Z2.113 X154.09 Y115.881 E.20398
G1 Z2.116 X154.261 Y116.406 E.20397
G1 Z2.119 X154.364 Y116.949 E.20393
G1 Z2.122 X154.4 Y117.519 E.21093
G1 Z2.229 X154.4 Y137.481 E7.37025
G1 Z2.232 X154.364 Y138.051 E.21093
G1 Z2.235 X154.261 Y138.594 E.20393
G1 Z2.238 X154.09 Y139.119 E.20397
G1 Z2.241 X153.855 Y139.619 E.20397
G1 Z2.244 X153.559 Y140.086 E.20392
G1 Z2.247 X153.207 Y140.511 E.20398
M73 P25 R3
G1 Z2.250 X152.804 Y140.889 E.20396
G1 Z2.253 X152.357 Y141.214 E.20393
G1 Z2.256 X151.873 Y141.48 E.20396
G1 Z2.259 X151.359 Y141.684 E.20394
G1 Z2.262 X150.824 Y141.821 E.20395
G1 Z2.265 X150.276 Y141.89 E.20394
G1 Z2.536 X99.724 Y141.89 E18.66438
G1 Z2.539 X99.176 Y141.821 E.20395
G1 Z2.542 X98.641 Y141.684 E.20395
G1 Z2.545 X98.127 Y141.48 E.20394
G1 Z2.548 X97.643 Y141.214 E.20396
G1 Z2.551 X97.196 Y140.889 E.20393
G1 Z2.554 X96.793 Y140.511 E.20396
M73 P26 R3
G1 Z2.557 X96.441 Y140.086 E.20398
G1 Z2.560 X96.145 Y139.619 E.20392
G1 Z2.563 X95.91 Y139.119 E.20398
G1 Z2.566 X95.739 Y138.594 E.20397
G1 Z2.569 X95.636 Y138.051 E.20393
G1 Z2.572 X95.6 Y137.481 E.21093
G1 Z2.679 X95.6 Y117.519 E7.37025
G1 Z2.682 X95.636 Y116.949 E.21093
G1 Z2.685 X95.739 Y116.406 E.20393
G1 Z2.688 X95.91 Y115.881 E.20397
G1 Z2.691 X96.145 Y115.381 E.20397
G1 Z2.694 X96.441 Y114.914 E.20392
G1 Z2.697 X96.793 Y114.489 E.20398
M73 P27 R3
G1 Z2.700 X97.196 Y114.111 E.20396
G1 Z2.700 X97.202 Y114.106 E.00282
; stop printing object 3dpr.stl id:0 copy 0
;LAYER_CHANGE
;Z:3.6
;HEIGHT:0.9
;BEFORE_LAYER_CHANGE
;3.6
G92 E0
M486 S-1
G1 Z2.700 F7200
;AFTER_LAYER_CHANGE
;3.6
;_SET_FAN_SPEED_CHANGING_LAYER
; printing object 3dpr.stl id:0 copy 0
M486 S0
G1 F794.551
G1 Z2.703 X97.643 Y113.786 E.20111
G1 Z2.706 X98.127 Y113.52 E.20396
G1 Z2.709 X98.641 Y113.316 E.20394
G1 Z2.712 X99.176 Y113.179 E.20395
G1 Z2.715 X99.724 Y113.11 E.20394
G1 Z2.987 X150.356 Y113.12 E18.69367
G1 Z2.989 X150.824 Y113.179 E.17442
G1 Z2.992 X151.359 Y113.316 E.20395
G1 Z2.995 X151.873 Y113.52 E.20394
G1 Z2.998 X152.357 Y113.786 E.20396
G1 Z3.001 X152.804 Y114.111 E.20393
G1 Z3.004 X153.207 Y114.489 E.20396
M73 P28 R3
G1 Z3.007 X153.559 Y114.914 E.20398
G1 Z3.010 X153.855 Y115.381 E.20392
G1 Z3.013 X154.09 Y115.881 E.20398
G1 Z3.016 X154.261 Y116.406 E.20397
G1 Z3.019 X154.364 Y116.949 E.20393
G1 Z3.022 X154.4 Y117.519 E.21093
G1 Z3.129 X154.4 Y137.481 E7.37025
G1 Z3.132 X154.364 Y138.051 E.21093
G1 Z3.135 X154.261 Y138.594 E.20393
G1 Z3.138 X154.09 Y139.119 E.20397
G1 Z3.141 X153.855 Y139.619 E.20398
G1 Z3.144 X153.559 Y140.086 E.20392
G1 Z3.147 X153.207 Y140.511 E.20398
M73 P29 R3
G1 Z3.150 X152.804 Y140.889 E.20396
G1 Z3.153 X152.357 Y141.214 E.20394
G1 Z3.156 X151.873 Y141.48 E.20396
G1 Z3.159 X151.359 Y141.684 E.20394
G1 Z3.162 X150.824 Y141.821 E.20395
G1 Z3.165 X150.276 Y141.89 E.20394
G1 Z3.436 X99.724 Y141.89 E18.66438
G1 Z3.439 X99.176 Y141.821 E.20395
G1 Z3.442 X98.641 Y141.684 E.20395
G1 Z3.445 X98.127 Y141.48 E.20394
G1 Z3.448 X97.643 Y141.214 E.20396
G1 Z3.451 X97.196 Y140.889 E.20393
G1 Z3.454 X96.793 Y140.511 E.20396
M73 P30 R3
G1 Z3.457 X96.441 Y140.086 E.20398
G1 Z3.460 X96.145 Y139.619 E.20392
G1 Z3.463 X95.91 Y139.119 E.20398
G1 Z3.466 X95.739 Y138.594 E.20397
G1 Z3.469 X95.636 Y138.051 E.20393
G1 Z3.472 X95.6 Y137.481 E.21093
G1 Z3.579 X95.6 Y117.519 E7.37025
G1 Z3.582 X95.636 Y116.949 E.21093
G1 Z3.585 X95.739 Y116.406 E.20393
G1 Z3.588 X95.91 Y115.881 E.20397
G1 Z3.591 X96.145 Y115.381 E.20398
G1 Z3.594 X96.441 Y114.914 E.20392
G1 Z3.597 X96.793 Y114.489 E.20398
M73 P31 R3
G1 Z3.600 X97.196 Y114.111 E.20396
G1 Z3.600 X97.202 Y114.106 E.00283
; stop printing object 3dpr.stl id:0 copy 0
;LAYER_CHANGE
;Z:4.5
;HEIGHT:0.9
;BEFORE_LAYER_CHANGE
;4.5
G92 E0
M486 S-1
G1 Z3.600 F7200
;AFTER_LAYER_CHANGE
;4.5
;_SET_FAN_SPEED_CHANGING_LAYER
; printing object 3dpr.stl id:0 copy 0
M486 S0
G1 F794.551
G1 Z3.603 X97.643 Y113.786 E.20111
G1 Z3.606 X98.127 Y113.52 E.20396
G1 Z3.609 X98.641 Y113.316 E.20394
G1 Z3.612 X99.176 Y113.179 E.20395
G1 Z3.615 X99.724 Y113.11 E.20395
G1 Z3.886 X150.276 Y113.11 E18.66438
G1 Z3.887 X150.389 Y113.124 E.04194
G1 Z3.889 X150.824 Y113.179 E.162
G1 Z3.892 X151.359 Y113.316 E.20395
G1 Z3.895 X151.873 Y113.52 E.20394
G1 Z3.898 X152.357 Y113.786 E.20396
G1 Z3.901 X152.804 Y114.111 E.20393
M73 P32 R3
G1 Z3.904 X153.207 Y114.489 E.20396
G1 Z3.907 X153.559 Y114.914 E.20398
G1 Z3.910 X153.855 Y115.381 E.20392
G1 Z3.913 X154.09 Y115.881 E.20398
G1 Z3.916 X154.261 Y116.406 E.20397
G1 Z3.919 X154.364 Y116.949 E.20393
G1 Z3.922 X154.4 Y117.519 E.21093
G1 Z4.029 X154.4 Y137.481 E7.37025
G1 Z4.032 X154.364 Y138.051 E.21093
G1 Z4.035 X154.261 Y138.594 E.20393
G1 Z4.038 X154.09 Y139.119 E.20397
G1 Z4.041 X153.855 Y139.619 E.20398
G1 Z4.044 X153.559 Y140.086 E.20392
G1 Z4.047 X153.207 Y140.511 E.20398
M73 P33 R3
G1 Z4.050 X152.804 Y140.889 E.20396
G1 Z4.053 X152.357 Y141.214 E.20393
G1 Z4.056 X151.873 Y141.48 E.20396
G1 Z4.059 X151.359 Y141.684 E.20394
G1 Z4.062 X150.824 Y141.821 E.20395
G1 Z4.065 X150.276 Y141.89 E.20395
G1 Z4.336 X99.724 Y141.89 E18.66437
G1 Z4.339 X99.176 Y141.821 E.20395
G1 Z4.342 X98.641 Y141.684 E.20395
G1 Z4.345 X98.127 Y141.48 E.20394
G1 Z4.348 X97.643 Y141.214 E.20396
G1 Z4.351 X97.196 Y140.889 E.20393
G1 Z4.354 X96.793 Y140.511 E.20396
M73 P34 R3
G1 Z4.357 X96.441 Y140.086 E.20398
G1 Z4.360 X96.145 Y139.619 E.20392
G1 Z4.363 X95.91 Y139.119 E.20398
G1 Z4.366 X95.739 Y138.594 E.20397
G1 Z4.369 X95.636 Y138.051 E.20393
G1 Z4.372 X95.6 Y137.481 E.21093
G1 Z4.479 X95.6 Y117.519 E7.37025
G1 Z4.482 X95.636 Y116.949 E.21093
G1 Z4.485 X95.739 Y116.406 E.20393
G1 Z4.488 X95.91 Y115.881 E.20397
G1 Z4.491 X96.145 Y115.381 E.20398
M73 P35 R3
G1 Z4.494 X96.441 Y114.914 E.20392
G1 Z4.497 X96.793 Y114.489 E.20398
G1 Z4.500 X97.196 Y114.111 E.20396
G1 Z4.500 X97.202 Y114.106 E.00282
; stop printing object 3dpr.stl id:0 copy 0
;LAYER_CHANGE
;Z:5.4
;HEIGHT:0.9
;BEFORE_LAYER_CHANGE
;5.4
G92 E0
M486 S-1
G1 Z4.500 F7200
;AFTER_LAYER_CHANGE
;5.4
;_SET_FAN_SPEED_CHANGING_LAYER
; printing object 3dpr.stl id:0 copy 0
M486 S0
G1 F794.551
G1 Z4.503 X97.643 Y113.786 E.20111
G1 Z4.506 X98.127 Y113.52 E.20396
G1 Z4.509 X98.641 Y113.316 E.20394
G1 Z4.512 X99.176 Y113.179 E.20395
G1 Z4.515 X99.724 Y113.11 E.20395
G1 Z4.786 X150.276 Y113.11 E18.66438
G1 Z4.787 X150.422 Y113.128 E.05436
G1 Z4.789 X150.824 Y113.179 E.14958
G1 Z4.792 X151.359 Y113.316 E.20395
G1 Z4.795 X151.873 Y113.52 E.20394
G1 Z4.798 X152.357 Y113.786 E.20396
G1 Z4.801 X152.804 Y114.111 E.20393
M73 P36 R3
G1 Z4.804 X153.207 Y114.489 E.20396
G1 Z4.807 X153.559 Y114.914 E.20398
G1 Z4.810 X153.855 Y115.381 E.20392
G1 Z4.813 X154.09 Y115.881 E.20397
G1 Z4.816 X154.261 Y116.406 E.20397
G1 Z4.819 X154.364 Y116.949 E.20393
G1 Z4.822 X154.4 Y117.519 E.21093
G1 Z4.929 X154.4 Y137.481 E7.37025
M73 P37 R3
G1 Z4.932 X154.364 Y138.051 E.21093
G1 Z4.935 X154.261 Y138.594 E.20393
G1 Z4.938 X154.09 Y139.119 E.20397
G1 Z4.941 X153.855 Y139.619 E.20398
G1 Z4.944 X153.559 Y140.086 E.20392
G1 Z4.947 X153.207 Y140.511 E.20398
G1 Z4.950 X152.804 Y140.889 E.20396
G1 Z4.953 X152.357 Y141.214 E.20393
G1 Z4.956 X151.873 Y141.48 E.20396
G1 Z4.959 X151.359 Y141.684 E.20394
G1 Z4.962 X150.824 Y141.821 E.20395
G1 Z4.965 X150.276 Y141.89 E.20395
G1 Z5.236 X99.724 Y141.89 E18.66437
G1 Z5.239 X99.176 Y141.821 E.20395
G1 Z5.242 X98.641 Y141.684 E.20395
G1 Z5.245 X98.127 Y141.48 E.20394
G1 Z5.248 X97.643 Y141.214 E.20396
G1 Z5.251 X97.196 Y140.889 E.20393
G1 Z5.254 X96.793 Y140.511 E.20396
M73 P38 R3
G1 Z5.257 X96.441 Y140.086 E.20398
G1 Z5.260 X96.145 Y139.619 E.20392
G1 Z5.263 X95.91 Y139.119 E.20397
M73 P39 R3
G1 Z5.266 X95.739 Y138.594 E.20397
G1 Z5.269 X95.636 Y138.051 E.20393
G1 Z5.272 X95.6 Y137.481 E.21093
G1 Z5.379 X95.6 Y117.519 E7.37025
G1 Z5.382 X95.636 Y116.949 E.21093
G1 Z5.385 X95.739 Y116.406 E.20393
G1 Z5.388 X95.91 Y115.881 E.20397
G1 Z5.391 X96.145 Y115.381 E.20398
G1 Z5.394 X96.441 Y114.914 E.20392
G1 Z5.397 X96.793 Y114.489 E.20398
G1 Z5.400 X97.196 Y114.111 E.20396
G1 Z5.400 X97.202 Y114.106 E.00282
; stop printing object 3dpr.stl id:0 copy 0
;LAYER_CHANGE
;Z:6.3
;HEIGHT:0.9
;BEFORE_LAYER_CHANGE
;6.3
G92 E0
M486 S-1
G1 Z5.400 F7200
;AFTER_LAYER_CHANGE
;6.3
;_SET_FAN_SPEED_CHANGING_LAYER
; printing object 3dpr.stl id:0 copy 0
M486 S0
G1 F794.551
G1 Z5.403 X97.643 Y113.786 E.20111
G1 Z5.406 X98.127 Y113.52 E.20396
G1 Z5.409 X98.641 Y113.316 E.20394
G1 Z5.412 X99.176 Y113.179 E.20395
G1 Z5.415 X99.724 Y113.11 E.20395
G1 Z5.686 X150.276 Y113.11 E18.66438
G1 Z5.687 X150.456 Y113.133 E.06678
G1 Z5.689 X150.824 Y113.179 E.13716
G1 Z5.692 X151.359 Y113.316 E.20395
G1 Z5.695 X151.873 Y113.52 E.20394
G1 Z5.698 X152.357 Y113.786 E.20396
G1 Z5.701 X152.804 Y114.111 E.20393
M73 P41 R3
G1 Z5.704 X153.207 Y114.489 E.20396
G1 Z5.707 X153.559 Y114.914 E.20398
G1 Z5.710 X153.855 Y115.381 E.20392
G1 Z5.713 X154.09 Y115.881 E.20398
G1 Z5.716 X154.261 Y116.406 E.20397
G1 Z5.719 X154.364 Y116.949 E.20393
G1 Z5.722 X154.4 Y117.519 E.21093
G1 Z5.829 X154.4 Y137.481 E7.37025
G1 Z5.832 X154.364 Y138.051 E.21093
