; HEADER_BLOCK_START
; generated by OrcaSlicer 1.9.1 on 2025-02-24 at 17:03:00
; total layer number: 42
; filament_density: 1.24
; filament_diameter: 1.75
; max_z_height: 16.79
; HEADER_BLOCK_END

; THUMBNAIL_BLOCK_START

;
; THUMBNAIL_BLOCK_END

; external perimeters extrusion width = 0.80mm
; perimeters extrusion width = 0.80mm
; infill extrusion width = 0.80mm
; solid infill extrusion width = 0.80mm
; top infill extrusion width = 1.20mm
; first layer extrusion width = 0.80mm

; EXECUTABLE_BLOCK_START
M486 S0
M486 A3dpr.stl_id_0_copy_0
M486 S-1
M73 P0 R6
M201 X1000 Y1000 Z200 E5000
M203 X200 Y200 Z10 E60
M204 P1250 R1250 T1250
M205 X8.00 Y8.00 Z0.40 E5.00 ; sets the jerk limits, mm/sec
;TYPE:Custom
G21 ;metric values
G90 ;absolute positioning
M82 ;set extruder to absolute mode
M107 ;start with the fan off
G28 X0 Y0 ;move X/Y to min endstops
M300 S1318 P266
G28 Z0 ;move Z to min endstops
G0 Z0.2
 
M355 S1 ;oomlout light on
M140 S60 ;Start heating bed 
M104 S170 ; set extruder temp
M190 S60 ;Wait for bed to reach temp before proceeding
M109 S170 ; wait for extruder temp

G0 Z20 F200;oomlout lift
;temperature stuff before bed leveling


;G29 ;oomlout bed level commented for planning
 

;purge print head from bambu
M109 S215 ;set nozzle to common flush temp
G92 E0 ;zero the extruded length
G1 E50 F300

M355 S1 ;oomlout light on
M104 S215 ;Start heating extruder
M109 S215 ;Wait for extruder to reach temp before proceeding



g1 Z3 F200; move z up a bit (height from prusa)
G92 E0 ;zero the extruded length
G0 E50 F300 ;clean out a bit more from bambu



M355 S1 ;oomlout light on
;from prusa
; intro line
G92 E0 ;zero the extruded length
G1 X170 F4000
G1 Y10 F1000;move bed forward and down ready for wipe
G1 Z0.2 F720
M73 P1 R6
G1 X110 E8 F900
M73 P4 R6
G1 X40 E10 F700
M73 P5 R6
G1 X20 F4000 ; Quickly wipe away from the filament line
G92 E0


M355 S1 ;oomlout light on
M117 ; Printing…
G5
G90
G21
M83 ; use relative distances for extrusion
; filament start gcode
M106 S0
;LAYER_CHANGE
;Z:0.39
;HEIGHT:0.39
;BEFORE_LAYER_CHANGE
;0.39
G92 E0
M73 P8 R5
G1 E-.8 F1800
;AFTER_LAYER_CHANGE
;0.39
;_SET_FAN_SPEED_CHANGING_LAYER
M204 S1000
; printing object 3dpr.stl id:0 copy 0
M486 S0
G1 X151.388 Y113.327 F7200
G1 Z.39 F6000
M73 P9 R5
G1 E.8 F2400
;TYPE:Outer wall
;WIDTH:1.19759
M73 P10 R5
G1 F1656
M73 P11 R5
G1 X151.392 Y113.328 E.00072
G1 X151.904 Y113.536 E.09776
G1 X152.386 Y113.806 E.09773
M73 P12 R5
G1 X152.83 Y114.134 E.09775
G1 X153.23 Y114.515 E.09776
G1 X153.578 Y114.943 E.09776
G1 X153.871 Y115.412 E.09777
;WIDTH:1.19769
G1 X154.102 Y115.914 E.09774
G1 X154.268 Y116.44 E.09777
G1 X154.367 Y116.983 E.09775
;WIDTH:1.2
G1 F1653.809
G1 X154.4 Y117.519 E.09515
;WIDTH:1.2
G1 X154.398 Y137.536 E3.55073
;WIDTH:1.19759
G1 F1656
G1 X154.359 Y138.086 E.09752
G1 X154.251 Y138.628 E.09775
G1 X154.076 Y139.151 E.09774
G1 X153.837 Y139.649 E.09777
G1 X153.537 Y140.113 E.09775
G1 X153.182 Y140.536 E.09777
G1 X152.776 Y140.911 E.09774
G1 X152.327 Y141.232 E.09775
G1 X151.841 Y141.494 E.09775
G1 X151.326 Y141.693 E.09776
G1 X150.79 Y141.826 E.09777
G1 X150.241 Y141.891 E.09775
G1 X99.759 Y141.891 E8.93531
G1 X99.142 Y141.813 E.1101
G1 X98.608 Y141.672 E.09778
G1 X98.096 Y141.464 E.09776
G1 X97.614 Y141.194 E.09773
G1 X97.17 Y140.866 E.09775
G1 X96.77 Y140.485 E.09776
M73 P13 R5
G1 X96.422 Y140.057 E.09776
G1 X96.129 Y139.588 E.09777
;WIDTH:1.19769
G1 X95.898 Y139.086 E.09774
G1 X95.732 Y138.56 E.09777
G1 X95.633 Y138.017 E.09775
;WIDTH:1.2
G1 F1653.809
G1 X95.6 Y137.481 E.09515
G1 X95.602 Y117.464 E3.55072
;WIDTH:1.19769
G1 F1656
G1 X95.641 Y116.914 E.09753
G1 X95.749 Y116.372 E.09776
;WIDTH:1.19759
G1 X95.924 Y115.848 E.09789
G1 X96.166 Y115.346 E.0986
G1 X96.463 Y114.887 E.09677
G1 X96.818 Y114.464 E.09777
G1 X97.224 Y114.089 E.09774
G1 X97.673 Y113.768 E.09775
G1 X98.159 Y113.506 E.09775
G1 X98.674 Y113.307 E.09776
G1 X99.21 Y113.174 E.09777
G1 X99.759 Y113.109 E.09775
G1 X150.241 Y113.109 E8.9353
G1 X150.858 Y113.187 E.11009
G1 X151.365 Y113.321 E.09281
; stop printing object 3dpr.stl id:0 copy 0
M106 S255
;LAYER_CHANGE
;Z:0.79
;HEIGHT:0.4
;BEFORE_LAYER_CHANGE
;0.79
G92 E0
;WIPE_START
G1 F1657.388
G1 X151.392 Y113.328 E-.02247
G1 X151.904 Y113.536 E-.44186
G1 X152.27 Y113.741 E-.33567
;WIPE_END
M486 S-1
;AFTER_LAYER_CHANGE
;0.79
;_SET_FAN_SPEED_CHANGING_LAYER
M104 S210 ; set nozzle temperature
M140 S65 ; set bed temperature
; printing object 3dpr.stl id:0 copy 0
M486 S0
G1 X151.386 Y113.327 Z.79 F7200
G1 E.8 F2400
M204 S700
;WIDTH:1.19976
G1 F1335
G1 X151.904 Y113.536 E.10142
;WIDTH:1.19764
G1 X152.386 Y113.806 E.10007
G1 X152.83 Y114.134 E.10007
G1 X153.23 Y114.515 E.10008
G1 X153.578 Y114.943 E.10008
G1 X153.871 Y115.412 E.10009
G1 X154.102 Y115.913 E.10005
G1 X154.268 Y116.44 E.10009
G1 X154.367 Y116.983 E.10005
;WIDTH:1.2
G1 X154.4 Y117.519 E.09741
G1 X154.398 Y137.536 E3.63476
;WIDTH:1.19769
G1 X154.359 Y138.086 E.09983
G1 X154.251 Y138.627 E.10007
G1 X154.076 Y139.151 E.10007
G1 X153.837 Y139.649 E.10009
;WIDTH:1.19758
G1 X153.537 Y140.113 E.10006
G1 X153.182 Y140.536 E.10009
;WIDTH:1.19768
M73 P14 R5
G1 X152.776 Y140.911 E.10006
G1 X152.327 Y141.232 E.10007
G1 X151.841 Y141.494 E.10007
G1 X151.326 Y141.693 E.10008
G1 X150.79 Y141.826 E.1001
G1 X150.241 Y141.891 E.10007
G1 X99.759 Y141.891 E9.14755
G1 X99.142 Y141.813 E.11269
;WIDTH:1.19977
G1 X98.626 Y141.678 E.09682
G1 X98.096 Y141.464 E.10372
;WIDTH:1.19765
G1 X97.614 Y141.194 E.10007
G1 X97.17 Y140.866 E.10007
G1 X96.77 Y140.485 E.10008
G1 X96.422 Y140.057 E.10008
G1 X96.129 Y139.588 E.10009
G1 X95.898 Y139.087 E.10005
G1 X95.732 Y138.56 E.10009
G1 X95.633 Y138.017 E.10005
;WIDTH:1.2
G1 X95.6 Y137.481 E.09741
G1 X95.602 Y117.464 E3.63477
;WIDTH:1.19769
G1 X95.641 Y116.914 E.09983
G1 X95.749 Y116.373 E.10007
G1 X95.924 Y115.849 E.10007
G1 X96.163 Y115.351 E.10009
;WIDTH:1.19758
G1 X96.463 Y114.887 E.10006
G1 X96.818 Y114.464 E.10009
;WIDTH:1.19769
M73 P15 R5
G1 X97.224 Y114.089 E.10006
G1 X97.673 Y113.768 E.10007
G1 X98.159 Y113.506 E.10007
G1 X98.674 Y113.307 E.10009
G1 X99.21 Y113.174 E.1001
G1 X99.759 Y113.109 E.10007
G1 X150.241 Y113.11 E9.14758
G1 X150.858 Y113.187 E.11266
;WIDTH:1.19976
G1 X151.363 Y113.319 E.09477
; stop printing object 3dpr.stl id:0 copy 0
;LAYER_CHANGE
;Z:1.19
;HEIGHT:0.4
;BEFORE_LAYER_CHANGE
;1.19
G92 E0
;WIPE_START
G1 F1615.909
G1 X151.904 Y113.536 E-.46604
G1 X152.268 Y113.74 E-.33396
;WIPE_END
M486 S-1
;AFTER_LAYER_CHANGE
;1.19
;_SET_FAN_SPEED_CHANGING_LAYER
; printing object 3dpr.stl id:0 copy 0
M486 S0
G1 X151.389 Y113.327 Z1.19 F7200
G1 E.8 F2400
;WIDTH:1.19769
G1 F1332
G1 X151.392 Y113.328 E.00057
G1 X151.904 Y113.536 E.10008
G1 X152.386 Y113.806 E.10006
G1 X152.83 Y114.134 E.10007
G1 X153.23 Y114.515 E.10009
G1 X153.578 Y114.943 E.10008
G1 X153.871 Y115.412 E.10009
G1 X154.102 Y115.913 E.10005
G1 X154.268 Y116.44 E.10009
G1 X154.367 Y116.983 E.10006
;WIDTH:1.2
G1 X154.4 Y117.519 E.09741
G1 X154.398 Y137.536 E3.63477
;WIDTH:1.19768
G1 X154.359 Y138.086 E.09983
G1 X154.251 Y138.627 E.10007
G1 X154.076 Y139.151 E.10007
G1 X153.837 Y139.649 E.10009
;WIDTH:1.19758
G1 X153.537 Y140.113 E.10006
G1 X153.182 Y140.536 E.10009
;WIDTH:1.19768
M73 P16 R5
G1 X152.776 Y140.911 E.10006
G1 X152.327 Y141.232 E.10007
G1 X151.841 Y141.494 E.10007
G1 X151.326 Y141.693 E.10008
G1 X150.79 Y141.826 E.1001
G1 X150.241 Y141.891 E.10007
G1 X99.759 Y141.891 E9.14755
G1 X99.142 Y141.813 E.11269
G1 X98.608 Y141.672 E.1001
G1 X98.096 Y141.464 E.10008
G1 X97.614 Y141.194 E.10006
G1 X97.17 Y140.866 E.10007
G1 X96.77 Y140.485 E.10009
G1 X96.422 Y140.057 E.10008
G1 X96.129 Y139.588 E.10009
G1 X95.898 Y139.087 E.10005
G1 X95.732 Y138.56 E.10009
G1 X95.633 Y138.017 E.10006
;WIDTH:1.2
G1 X95.6 Y137.481 E.09741
G1 X95.602 Y117.464 E3.63476
;WIDTH:1.19769
G1 X95.641 Y116.914 E.09983
G1 X95.749 Y116.373 E.10007
G1 X95.924 Y115.849 E.10007
G1 X96.163 Y115.351 E.10009
;WIDTH:1.19758
G1 X96.463 Y114.887 E.10006
G1 X96.818 Y114.464 E.10009
;WIDTH:1.19769
M73 P17 R5
G1 X97.224 Y114.089 E.10006
G1 X97.673 Y113.768 E.10007
G1 X98.159 Y113.506 E.10007
G1 X98.674 Y113.307 E.10008
G1 X99.21 Y113.174 E.1001
G1 X99.759 Y113.109 E.10007
G1 X150.313 Y113.113 E9.16058
G1 X150.858 Y113.187 E.0997
G1 X151.366 Y113.321 E.09518
; stop printing object 3dpr.stl id:0 copy 0
;LAYER_CHANGE
;Z:1.59
;HEIGHT:0.4
;BEFORE_LAYER_CHANGE
;1.59
G92 E0
;WIPE_START
G1 F1618.929
G1 X151.392 Y113.328 E-.02174
G1 X151.904 Y113.536 E-.44185
G1 X152.271 Y113.741 E-.33641
;WIPE_END
M486 S-1
;AFTER_LAYER_CHANGE
;1.59
;_SET_FAN_SPEED_CHANGING_LAYER
; printing object 3dpr.stl id:0 copy 0
M486 S0
G1 X151.39 Y113.328 Z1.59 F7200
G1 E.8 F2400
G1 F1332
G1 X151.392 Y113.328 E.00048
G1 X151.904 Y113.536 E.10008
G1 X152.386 Y113.806 E.10006
G1 X152.83 Y114.134 E.10007
G1 X153.23 Y114.515 E.10009
G1 X153.578 Y114.943 E.10008
G1 X153.871 Y115.412 E.10009
G1 X154.102 Y115.913 E.10005
G1 X154.268 Y116.44 E.10009
G1 X154.367 Y116.983 E.10006
;WIDTH:1.2
G1 X154.4 Y117.519 E.09741
G1 X154.398 Y137.536 E3.63476
;WIDTH:1.19768
G1 X154.359 Y138.086 E.09983
G1 X154.251 Y138.627 E.10007
G1 X154.076 Y139.151 E.10007
G1 X153.837 Y139.649 E.10009
;WIDTH:1.19758
G1 X153.537 Y140.113 E.10006
G1 X153.182 Y140.536 E.10008
;WIDTH:1.19768
M73 P18 R5
G1 X152.776 Y140.911 E.10006
G1 X152.327 Y141.232 E.10007
G1 X151.841 Y141.494 E.10007
G1 X151.326 Y141.693 E.10008
G1 X150.79 Y141.826 E.1001
G1 X150.241 Y141.891 E.10007
G1 X99.759 Y141.891 E9.14755
G1 X99.142 Y141.813 E.11269
G1 X98.608 Y141.672 E.1001
G1 X98.096 Y141.464 E.10008
G1 X97.614 Y141.194 E.10005
G1 X97.17 Y140.866 E.10007
G1 X96.77 Y140.485 E.10009
G1 X96.422 Y140.057 E.10008
G1 X96.129 Y139.588 E.10009
G1 X95.898 Y139.087 E.10005
G1 X95.732 Y138.56 E.10009
G1 X95.633 Y138.017 E.10006
;WIDTH:1.2
G1 X95.6 Y137.481 E.09741
G1 X95.602 Y117.464 E3.63477
;WIDTH:1.19769
G1 X95.641 Y116.914 E.09983
G1 X95.749 Y116.373 E.10007
G1 X95.924 Y115.849 E.10007
G1 X96.163 Y115.351 E.10009
;WIDTH:1.19758
G1 X96.463 Y114.887 E.10006
G1 X96.818 Y114.464 E.10008
;WIDTH:1.19769
M73 P19 R5
G1 X97.224 Y114.089 E.10006
G1 X97.673 Y113.768 E.10007
G1 X98.159 Y113.506 E.10007
G1 X98.674 Y113.307 E.10008
G1 X99.21 Y113.174 E.1001
G1 X99.759 Y113.109 E.10007
G1 X150.328 Y113.115 E9.16326
G1 X150.858 Y113.187 E.09699
G1 X151.366 Y113.321 E.09527
; stop printing object 3dpr.stl id:0 copy 0
;LAYER_CHANGE
;Z:1.99
;HEIGHT:0.4
;BEFORE_LAYER_CHANGE
;1.99
G92 E0
;WIPE_START
G1 F1618.929
G1 X151.392 Y113.328 E-.02133
G1 X151.904 Y113.536 E-.44185
G1 X152.271 Y113.741 E-.33682
;WIPE_END
M486 S-1
;AFTER_LAYER_CHANGE
;1.99
;_SET_FAN_SPEED_CHANGING_LAYER
; printing object 3dpr.stl id:0 copy 0
M486 S0
G1 X151.39 Y113.328 Z1.99 F7200
G1 E.8 F2400
;WIDTH:1.19768
G1 F1332
G1 X151.392 Y113.328 E.00039
G1 X151.904 Y113.536 E.10008
G1 X152.386 Y113.806 E.10005
G1 X152.83 Y114.134 E.10007
G1 X153.23 Y114.515 E.10009
G1 X153.578 Y114.943 E.10008
G1 X153.871 Y115.412 E.10009
G1 X154.102 Y115.913 E.10005
G1 X154.268 Y116.44 E.10009
G1 X154.367 Y116.983 E.10006
;WIDTH:1.2
G1 X154.4 Y117.519 E.09741
G1 X154.398 Y137.536 E3.63476
;WIDTH:1.19768
G1 X154.359 Y138.086 E.09983
M73 P20 R5
G1 X154.251 Y138.627 E.10007
G1 X154.076 Y139.151 E.10007
G1 X153.837 Y139.649 E.10009
;WIDTH:1.19758
G1 X153.537 Y140.113 E.10006
G1 X153.182 Y140.536 E.10008
;WIDTH:1.19768
G1 X152.776 Y140.911 E.10006
G1 X152.327 Y141.232 E.10007
G1 X151.841 Y141.494 E.10007
G1 X151.326 Y141.693 E.10009
G1 X150.79 Y141.826 E.1001
G1 X150.241 Y141.891 E.10007
G1 X99.759 Y141.891 E9.14757
G1 X99.142 Y141.813 E.11269
G1 X98.608 Y141.672 E.1001
G1 X98.096 Y141.464 E.10008
G1 X97.614 Y141.194 E.10005
G1 X97.17 Y140.866 E.10007
G1 X96.77 Y140.485 E.10009
G1 X96.422 Y140.057 E.10008
G1 X96.129 Y139.588 E.10009
G1 X95.898 Y139.087 E.10005
G1 X95.732 Y138.56 E.10009
G1 X95.633 Y138.017 E.10006
;WIDTH:1.2
G1 X95.6 Y137.481 E.09741
G1 X95.602 Y117.464 E3.63477
;WIDTH:1.19769
G1 X95.641 Y116.914 E.09983
G1 X95.749 Y116.373 E.10007
M73 P21 R5
G1 X95.924 Y115.849 E.10007
G1 X96.163 Y115.351 E.10009
;WIDTH:1.19758
G1 X96.463 Y114.887 E.10006
G1 X96.818 Y114.464 E.10009
;WIDTH:1.19768
G1 X97.224 Y114.089 E.10006
G1 X97.673 Y113.768 E.10007
G1 X98.159 Y113.506 E.10007
G1 X98.674 Y113.307 E.10009
G1 X99.21 Y113.174 E.1001
G1 X99.759 Y113.109 E.10007
G1 X150.343 Y113.117 E9.16593
G1 X150.858 Y113.187 E.09428
G1 X151.367 Y113.322 E.09537
; stop printing object 3dpr.stl id:0 copy 0
;LAYER_CHANGE
;Z:2.39
;HEIGHT:0.4
;BEFORE_LAYER_CHANGE
;2.39
G92 E0
;WIPE_START
G1 F1618.932
G1 X151.392 Y113.328 E-.02091
G1 X151.904 Y113.536 E-.44186
G1 X152.272 Y113.742 E-.33723
;WIPE_END
M486 S-1
;AFTER_LAYER_CHANGE
;2.39
;_SET_FAN_SPEED_CHANGING_LAYER
; printing object 3dpr.stl id:0 copy 0
M486 S0
M73 P21 R4
G1 X151.391 Y113.328 Z2.39 F7200
G1 E.8 F2400
;WIDTH:1.19758
G1 F1334
G1 X151.392 Y113.328 E.00029
G1 X151.904 Y113.536 E.10007
G1 X152.386 Y113.806 E.10005
G1 X152.83 Y114.134 E.10006
G1 X153.23 Y114.515 E.10008
G1 X153.578 Y114.943 E.10007
G1 X153.871 Y115.412 E.10008
G1 X154.102 Y115.913 E.10004
M73 P22 R4
G1 X154.268 Y116.44 E.10008
;WIDTH:1.19769
G1 X154.367 Y116.983 E.10006
;WIDTH:1.2
G1 X154.4 Y117.519 E.09741
G1 X154.398 Y137.536 E3.63476
;WIDTH:1.19768
G1 X154.359 Y138.086 E.09983
G1 X154.251 Y138.627 E.10007
G1 X154.076 Y139.151 E.10007
G1 X153.837 Y139.649 E.10009
;WIDTH:1.19758
G1 X153.537 Y140.113 E.10006
G1 X153.182 Y140.536 E.10009
;WIDTH:1.19768
G1 X152.776 Y140.911 E.10006
G1 X152.327 Y141.232 E.10007
G1 X151.841 Y141.494 E.10007
G1 X151.326 Y141.693 E.10008
G1 X150.79 Y141.826 E.1001
G1 X150.241 Y141.891 E.10007
G1 X99.759 Y141.891 E9.14757
G1 X99.142 Y141.813 E.11269
G1 X98.608 Y141.672 E.1001
G1 X98.096 Y141.464 E.10008
G1 X97.614 Y141.194 E.10005
G1 X97.17 Y140.866 E.10007
G1 X96.77 Y140.485 E.10009
G1 X96.422 Y140.057 E.10008
G1 X96.129 Y139.588 E.10009
G1 X95.898 Y139.087 E.10005
G1 X95.732 Y138.56 E.10009
M73 P23 R4
G1 X95.633 Y138.017 E.10006
;WIDTH:1.2
G1 X95.6 Y137.481 E.09741
G1 X95.602 Y117.464 E3.63477
;WIDTH:1.19769
G1 X95.641 Y116.914 E.09983
G1 X95.749 Y116.373 E.10007
G1 X95.924 Y115.849 E.10007
G1 X96.163 Y115.351 E.10009
;WIDTH:1.19758
G1 X96.463 Y114.887 E.10006
G1 X96.818 Y114.464 E.10009
;WIDTH:1.19769
G1 X97.224 Y114.089 E.10006
G1 X97.673 Y113.768 E.10007
G1 X98.159 Y113.506 E.10007
G1 X98.674 Y113.307 E.10008
G1 X99.21 Y113.174 E.1001
G1 X99.759 Y113.109 E.10007
;WIDTH:1.19758
G1 X150.357 Y113.119 E9.16779
G1 X150.858 Y113.187 E.09157
G1 X151.368 Y113.322 E.09545
; stop printing object 3dpr.stl id:0 copy 0
;LAYER_CHANGE
;Z:2.79
;HEIGHT:0.4
;BEFORE_LAYER_CHANGE
;2.79
G92 E0
;WIPE_START
G1 F1619.078
G1 X151.392 Y113.328 E-.02048
G1 X151.904 Y113.536 E-.44186
G1 X152.272 Y113.742 E-.33766
;WIPE_END
M486 S-1
;AFTER_LAYER_CHANGE
;2.79
;_SET_FAN_SPEED_CHANGING_LAYER
; printing object 3dpr.stl id:0 copy 0
M486 S0
G1 X151.392 Y113.328 Z2.79 F7200
G1 E.8 F2400
;WIDTH:1.19769
G1 F1334
G1 X151.904 Y113.536 E.10008
G1 X152.386 Y113.806 E.10006
G1 X152.83 Y114.134 E.10007
G1 X153.23 Y114.515 E.10009
;WIDTH:1.19759
M73 P24 R4
G1 X153.578 Y114.943 E.10007
G1 X153.871 Y115.412 E.10008
G1 X154.102 Y115.913 E.10004
G1 X154.268 Y116.44 E.10008
;WIDTH:1.19769
G1 X154.367 Y116.983 E.10006
;WIDTH:1.2
G1 X154.4 Y117.519 E.09741
G1 X154.398 Y137.536 E3.63476
;WIDTH:1.19768
G1 X154.359 Y138.086 E.09983
G1 X154.251 Y138.627 E.10007
G1 X154.076 Y139.151 E.10007
G1 X153.837 Y139.649 E.10009
;WIDTH:1.19758
G1 X153.537 Y140.113 E.10006
G1 X153.182 Y140.536 E.10009
;WIDTH:1.19768
G1 X152.776 Y140.911 E.10006
G1 X152.327 Y141.232 E.10007
G1 X151.841 Y141.494 E.10007
G1 X151.326 Y141.693 E.10008
G1 X150.79 Y141.826 E.1001
G1 X150.241 Y141.891 E.10007
G1 X99.759 Y141.891 E9.14755
G1 X99.142 Y141.813 E.11269
G1 X98.608 Y141.672 E.1001
G1 X98.096 Y141.464 E.10008
G1 X97.614 Y141.194 E.10005
G1 X97.17 Y140.866 E.10007
G1 X96.77 Y140.485 E.10009
M73 P25 R4
G1 X96.422 Y140.057 E.10008
G1 X96.129 Y139.588 E.10009
G1 X95.898 Y139.087 E.10005
G1 X95.732 Y138.56 E.10009
G1 X95.633 Y138.017 E.10006
;WIDTH:1.2
G1 X95.6 Y137.481 E.09741
G1 X95.602 Y117.464 E3.63477
;WIDTH:1.19769
